; G-Code generated by Simplify3D(R) Version 4.1.2
; Jun 11, 2021 at 12:29:45 PM
; Settings Summary
;   processName,Process1
;   applyToModels,base tubito(2)
;   profileName,wanhao1 (modified)
;   profileVersion,2021-01-03 22:54:49
;   baseProfile,Default
;   printMaterial,PLA
;   printQuality,Medium
;   printExtruders,
;   extruderName,Primary Extruder
;   extruderToolheadNumber,0
;   extruderDiameter,0.35
;   extruderAutoWidth,0
;   extruderWidth,0.4
;   extrusionMultiplier,0.9
;   extruderUseRetract,1
;   extruderRetractionDistance,1
;   extruderExtraRestartDistance,0
;   extruderRetractionZLift,0
;   extruderRetractionSpeed,1800
;   extruderUseCoasting,0
;   extruderCoastingDistance,0.2
;   extruderUseWipe,0
;   extruderWipeDistance,5
;   primaryExtruder,0
;   layerHeight,0.15
;   topSolidLayers,4
;   bottomSolidLayers,3
;   perimeterOutlines,2
;   printPerimetersInsideOut,1
;   startPointOption,2
;   startPointOriginX,0
;   startPointOriginY,0
;   sequentialIslands,0
;   spiralVaseMode,0
;   firstLayerHeightPercentage,90
;   firstLayerWidthPercentage,100
;   firstLayerUnderspeed,0.5
;   useRaft,0
;   raftExtruder,0
;   raftTopLayers,3
;   raftBaseLayers,2
;   raftOffset,3
;   raftSeparationDistance,0.14
;   raftTopInfill,100
;   aboveRaftSpeedMultiplier,0.3
;   useSkirt,1
;   skirtExtruder,0
;   skirtLayers,1
;   skirtOutlines,2
;   skirtOffset,4
;   usePrimePillar,0
;   primePillarExtruder,999
;   primePillarWidth,12
;   primePillarLocation,7
;   primePillarSpeedMultiplier,1
;   useOozeShield,0
;   oozeShieldExtruder,999
;   oozeShieldOffset,2
;   oozeShieldOutlines,1
;   oozeShieldSidewallShape,1
;   oozeShieldSidewallAngle,30
;   oozeShieldSpeedMultiplier,1
;   infillExtruder,0
;   internalInfillPattern,Rectilinear
;   externalInfillPattern,Rectilinear
;   infillPercentage,50
;   outlineOverlapPercentage,15
;   infillExtrusionWidthPercentage,100
;   minInfillLength,5
;   infillLayerInterval,1
;   internalInfillAngles,45,-45
;   overlapInternalInfillAngles,0
;   externalInfillAngles,45,-45
;   generateSupport,1
;   supportExtruder,0
;   supportInfillPercentage,15
;   supportExtraInflation,0
;   supportBaseLayers,0
;   denseSupportExtruder,0
;   denseSupportLayers,0
;   denseSupportInfillPercentage,70
;   supportLayerInterval,1
;   supportHorizontalPartOffset,0.3
;   supportUpperSeparationLayers,1
;   supportLowerSeparationLayers,1
;   supportType,0
;   supportGridSpacing,4
;   maxOverhangAngle,45
;   supportAngles,0
;   temperatureName,Primary Extruder
;   temperatureNumber,0
;   temperatureSetpointCount,1
;   temperatureSetpointLayers,1
;   temperatureSetpointTemperatures,210
;   temperatureStabilizeAtStartup,1
;   temperatureHeatedBed,0
;   fanLayers,1,2
;   fanSpeeds,0,100
;   blipFanToFullPower,0
;   adjustSpeedForCooling,1
;   minSpeedLayerTime,15
;   minCoolingSpeedSlowdown,20
;   increaseFanForCooling,0
;   minFanLayerTime,45
;   maxCoolingFanSpeed,100
;   increaseFanForBridging,0
;   bridgingFanSpeed,100
;   use5D,1
;   relativeEdistances,0
;   allowEaxisZeroing,1
;   independentExtruderAxes,0
;   includeM10123,0
;   stickySupport,1
;   applyToolheadOffsets,0
;   gcodeXoffset,0
;   gcodeYoffset,0
;   gcodeZoffset,0
;   overrideMachineDefinition,0
;   machineTypeOverride,0
;   strokeXoverride,200
;   strokeYoverride,200
;   strokeZoverride,200
;   originOffsetXoverride,0
;   originOffsetYoverride,0
;   originOffsetZoverride,0
;   homeXdirOverride,-1
;   homeYdirOverride,-1
;   homeZdirOverride,-1
;   flipXoverride,1
;   flipYoverride,-1
;   flipZoverride,1
;   toolheadOffsets,0,0|0,0|0,0|0,0|0,0|0,0
;   overrideFirmwareConfiguration,0
;   firmwareTypeOverride,RepRap (Marlin/Repetier/Sprinter)
;   GPXconfigOverride,r2
;   baudRateOverride,115200
;   overridePrinterModels,0
;   printerModelsOverride
;   startingGcode,G28 ; home all axes
;   layerChangeGcode,
;   retractionGcode,
;   toolChangeGcode,
;   endingGcode,M104 S0 ; turn off extruder,M140 S0 ; turn off bed,G0 X0 Y0; GO HOME,M84 ; disable motors
;   exportFileFormat,gcode
;   celebration,0
;   celebrationSong,Random Song
;   postProcessing,
;   defaultSpeed,1200
;   outlineUnderspeed,0.5
;   solidInfillUnderspeed,0.8
;   supportUnderspeed,0.8
;   rapidXYspeed,4800
;   rapidZspeed,1002
;   minBridgingArea,50
;   bridgingExtraInflation,0
;   bridgingExtrusionMultiplier,1
;   bridgingSpeedMultiplier,1
;   useFixedBridgingAngle,0
;   fixedBridgingAngle,0
;   applyBridgingToPerimeters,0
;   filamentDiameters,1.75|1.75|1.75|1.75|1.75|1.75
;   filamentPricesPerKg,46|46|46|46|46|46
;   filamentDensities,1.25|1.25|1.25|1.25|1.25|1.25
;   useMinPrintHeight,0
;   minPrintHeight,0
;   useMaxPrintHeight,0
;   maxPrintHeight,0
;   useDiaphragm,0
;   diaphragmLayerInterval,20
;   robustSlicing,1
;   mergeAllIntoSolid,0
;   onlyRetractWhenCrossingOutline,1
;   retractBetweenLayers,1
;   useRetractionMinTravel,0
;   retractionMinTravel,3
;   retractWhileWiping,0
;   onlyWipeOutlines,1
;   avoidCrossingOutline,0
;   maxMovementDetourFactor,3
;   toolChangeRetractionDistance,12
;   toolChangeExtraRestartDistance,-0.5
;   toolChangeRetractionSpeed,600
;   externalThinWallType,0
;   internalThinWallType,2
;   thinWallAllowedOverlapPercentage,10
;   singleExtrusionMinLength,1
;   singleExtrusionMinPrintingWidthPercentage,50
;   singleExtrusionMaxPrintingWidthPercentage,200
;   singleExtrusionEndpointExtension,0.2
;   horizontalSizeCompensation,0
G90
M82
M106 S0
M104 S210 T0
M109 S210 T0
G28 ; home all axes
; process Process1
; layer 1, Z = 0.135
T0
G92 E0.0000
G1 E-1.0000 F1800
; feature skirt
; tool H0.135 W0.400
G1 Z0.135 F1002
G1 X86.305 Y85.978 F4800
G1 E0.0000 F1800
G92 E0.0000
G1 X86.407 Y85.880 E0.0029 F600
G1 X87.194 Y85.162 E0.0244
G1 X87.302 Y85.070 E0.0273
G1 X88.132 Y84.402 E0.0488
G1 X88.245 Y84.316 E0.0516
G1 X89.115 Y83.701 E0.0732
G1 X89.233 Y83.622 E0.0760
G1 X89.757 Y83.298 E0.0885
G1 X91.875 Y81.180 E0.1490
G1 X94.529 Y81.180 E0.2026
G1 X94.568 Y81.168 E0.2035
G1 X94.704 Y81.129 E0.2063
G1 X95.738 Y80.869 E0.2279
G1 X95.876 Y80.839 E0.2307
G1 X96.924 Y80.643 E0.2523
G1 X97.063 Y80.621 E0.2551
G1 X98.121 Y80.490 E0.2767
G1 X98.262 Y80.477 E0.2795
G1 X99.326 Y80.411 E0.3010
G1 X99.467 Y80.407 E0.3039
G1 X100.533 Y80.407 E0.3254
G1 X100.674 Y80.411 E0.3283
G1 X101.738 Y80.477 E0.3498
G1 X101.879 Y80.490 E0.3527
G1 X102.937 Y80.621 E0.3742
G1 X103.076 Y80.643 E0.3771
G1 X104.124 Y80.839 E0.3986
G1 X104.262 Y80.869 E0.4015
G1 X105.296 Y81.129 E0.4230
G1 X105.432 Y81.168 E0.4259
G1 X105.471 Y81.180 E0.4267
G1 X108.125 Y81.180 E0.4803
G1 X110.243 Y83.298 E0.5408
G1 X110.767 Y83.622 E0.5533
G1 X110.885 Y83.701 E0.5562
G1 X111.755 Y84.316 E0.5777
G1 X111.868 Y84.402 E0.5806
G1 X112.698 Y85.070 E0.6021
G1 X112.806 Y85.162 E0.6050
G1 X113.593 Y85.880 E0.6265
G1 X113.695 Y85.978 E0.6293
G1 X114.437 Y86.743 E0.6509
G1 X114.532 Y86.848 E0.6537
G1 X115.226 Y87.657 E0.6753
G1 X115.314 Y87.767 E0.6781
G1 X115.957 Y88.618 E0.6997
G1 X116.038 Y88.733 E0.7025
G1 X116.627 Y89.622 E0.7241
G1 X116.702 Y89.742 E0.7269
G1 X116.721 Y89.775 E0.7277
G1 X118.820 Y91.875 E0.7877
G1 X118.820 Y94.551 E0.8417
G1 X118.991 Y95.151 E0.8544
G1 X119.025 Y95.288 E0.8572
G1 X119.253 Y96.329 E0.8787
G1 X119.279 Y96.468 E0.8816
G1 X119.443 Y97.521 E0.9031
G1 X119.460 Y97.662 E0.9060
G1 X119.558 Y98.723 E0.9275
G1 X119.567 Y98.864 E0.9304
G1 X119.600 Y99.929 E0.9519
G1 X119.600 Y100.071 E0.9548
G1 X119.567 Y101.136 E0.9763
G1 X119.558 Y101.277 E0.9792
G1 X119.460 Y102.338 E1.0007
G1 X119.443 Y102.479 E1.0036
G1 X119.279 Y103.532 E1.0251
G1 X119.253 Y103.671 E1.0280
G1 X119.025 Y104.712 E1.0495
G1 X118.991 Y104.849 E1.0524
G1 X118.820 Y105.449 E1.0650
G1 X118.820 Y108.125 E1.1190
G1 X116.721 Y110.225 E1.1790
G1 X116.702 Y110.258 E1.1798
G1 X116.627 Y110.378 E1.1827
G1 X116.038 Y111.267 E1.2042
G1 X115.957 Y111.382 E1.2070
G1 X115.314 Y112.233 E1.2286
G1 X115.226 Y112.343 E1.2314
G1 X114.532 Y113.152 E1.2530
G1 X114.437 Y113.257 E1.2558
G1 X113.695 Y114.022 E1.2774
G1 X113.593 Y114.120 E1.2802
G1 X112.806 Y114.838 E1.3018
G1 X112.698 Y114.930 E1.3046
G1 X111.868 Y115.598 E1.3261
G1 X111.755 Y115.684 E1.3290
G1 X110.885 Y116.299 E1.3505
G1 X110.767 Y116.378 E1.3534
G1 X110.243 Y116.702 E1.3659
G1 X108.125 Y118.820 E1.4264
G1 X105.471 Y118.820 E1.4800
G1 X105.432 Y118.832 E1.4808
G1 X105.296 Y118.871 E1.4837
G1 X104.262 Y119.131 E1.5052
G1 X104.124 Y119.161 E1.5081
G1 X103.076 Y119.357 E1.5296
G1 X102.936 Y119.379 E1.5325
G1 X101.879 Y119.510 E1.5540
G1 X101.738 Y119.523 E1.5569
G1 X100.674 Y119.589 E1.5784
G1 X100.533 Y119.593 E1.5813
G1 X99.467 Y119.593 E1.6028
G1 X99.326 Y119.589 E1.6057
G1 X98.262 Y119.523 E1.6272
G1 X98.121 Y119.510 E1.6301
G1 X97.064 Y119.379 E1.6516
G1 X96.924 Y119.357 E1.6544
G1 X95.876 Y119.161 E1.6760
G1 X95.738 Y119.131 E1.6788
G1 X94.704 Y118.871 E1.7004
G1 X94.568 Y118.832 E1.7032
G1 X94.529 Y118.820 E1.7041
G1 X91.875 Y118.820 E1.7577
G1 X89.757 Y116.702 E1.8182
G1 X89.233 Y116.378 E1.8307
G1 X89.115 Y116.299 E1.8335
G1 X88.245 Y115.684 E1.8551
G1 X88.132 Y115.598 E1.8579
G1 X87.302 Y114.930 E1.8795
G1 X87.194 Y114.838 E1.8823
G1 X86.407 Y114.120 E1.9038
G1 X86.305 Y114.022 E1.9067
G1 X85.563 Y113.257 E1.9282
G1 X85.468 Y113.152 E1.9311
G1 X84.774 Y112.343 E1.9526
G1 X84.686 Y112.233 E1.9555
G1 X84.043 Y111.382 E1.9770
G1 X83.962 Y111.267 E1.9799
G1 X83.373 Y110.378 E2.0014
G1 X83.298 Y110.258 E2.0043
G1 X83.279 Y110.225 E2.0051
G1 X81.180 Y108.125 E2.0650
G1 X81.180 Y105.450 E2.1191
G1 X81.009 Y104.849 E2.1317
G1 X80.975 Y104.712 E2.1346
G1 X80.747 Y103.671 E2.1561
G1 X80.720 Y103.530 E2.1590
G1 X80.556 Y102.471 E2.1807
G1 X80.539 Y102.332 E2.1835
G1 X80.442 Y101.277 E2.2049
G1 X80.433 Y101.136 E2.2078
G1 X80.400 Y100.071 E2.2293
G1 X80.400 Y99.929 E2.2321
G1 X80.433 Y98.864 E2.2537
G1 X80.442 Y98.723 E2.2565
G1 X80.540 Y97.662 E2.2781
G1 X80.557 Y97.521 E2.2809
G1 X80.721 Y96.468 E2.3025
G1 X80.747 Y96.329 E2.3053
G1 X80.975 Y95.288 E2.3269
G1 X81.009 Y95.151 E2.3297
G1 X81.180 Y94.550 E2.3423
G1 X81.180 Y91.875 E2.3964
G1 X83.279 Y89.775 E2.4564
G1 X83.298 Y89.742 E2.4572
G1 X83.373 Y89.622 E2.4600
G1 X83.962 Y88.733 E2.4815
G1 X84.043 Y88.618 E2.4844
G1 X84.686 Y87.767 E2.5059
G1 X84.774 Y87.657 E2.5088
G1 X85.468 Y86.848 E2.5303
G1 X85.563 Y86.743 E2.5332
G1 X86.305 Y85.978 E2.5547
G92 E0.0000
G1 E-1.0000 F1800
G1 X86.588 Y86.261 F4800
G1 E0.0000 F1800
G92 E0.0000
G1 X86.681 Y86.171 E0.0026 F600
G1 X87.459 Y85.462 E0.0239
G1 X87.557 Y85.377 E0.0265
G1 X88.378 Y84.717 E0.0478
G1 X88.481 Y84.639 E0.0504
G1 X89.341 Y84.031 E0.0717
G1 X89.449 Y83.959 E0.0743
G1 X90.007 Y83.613 E0.0876
G1 X92.040 Y81.580 E0.1457
G1 X94.591 Y81.580 E0.1972
G1 X94.683 Y81.551 E0.1992
G1 X94.808 Y81.515 E0.2018
G1 X95.829 Y81.258 E0.2231
G1 X95.956 Y81.231 E0.2257
G1 X96.991 Y81.037 E0.2470
G1 X97.119 Y81.017 E0.2496
G1 X98.164 Y80.888 E0.2709
G1 X98.293 Y80.876 E0.2735
G1 X99.344 Y80.811 E0.2948
G1 X99.473 Y80.807 E0.2974
G1 X100.527 Y80.807 E0.3186
G1 X100.656 Y80.811 E0.3213
G1 X101.707 Y80.876 E0.3425
G1 X101.836 Y80.888 E0.3452
G1 X102.881 Y81.017 E0.3664
G1 X103.009 Y81.037 E0.3690
G1 X104.044 Y81.231 E0.3903
G1 X104.171 Y81.258 E0.3929
G1 X105.192 Y81.515 E0.4142
G1 X105.317 Y81.551 E0.4168
G1 X105.409 Y81.580 E0.4188
G1 X107.960 Y81.580 E0.4703
G1 X109.993 Y83.613 E0.5284
G1 X110.551 Y83.959 E0.5417
G1 X110.659 Y84.031 E0.5443
G1 X111.519 Y84.639 E0.5656
G1 X111.622 Y84.717 E0.5682
G1 X112.443 Y85.377 E0.5895
G1 X112.541 Y85.462 E0.5921
G1 X113.319 Y86.171 E0.6134
G1 X113.412 Y86.261 E0.6160
G1 X114.145 Y87.017 E0.6373
G1 X114.233 Y87.113 E0.6399
G1 X114.918 Y87.913 E0.6612
G1 X114.999 Y88.013 E0.6638
G1 X115.634 Y88.854 E0.6851
G1 X115.708 Y88.960 E0.6877
G1 X116.290 Y89.838 E0.7090
G1 X116.358 Y89.948 E0.7116
G1 X116.401 Y90.021 E0.7133
G1 X118.420 Y92.040 E0.7710
G1 X118.420 Y94.606 E0.8229
G1 X118.604 Y95.254 E0.8365
G1 X118.636 Y95.380 E0.8391
G1 X118.861 Y96.408 E0.8604
G1 X118.885 Y96.536 E0.8630
G1 X119.047 Y97.576 E0.8843
G1 X119.062 Y97.705 E0.8869
G1 X119.160 Y98.753 E0.9081
G1 X119.168 Y98.883 E0.9108
G1 X119.200 Y99.935 E0.9320
G1 X119.200 Y100.065 E0.9347
G1 X119.168 Y101.117 E0.9559
G1 X119.160 Y101.247 E0.9586
G1 X119.062 Y102.295 E0.9798
G1 X119.047 Y102.424 E0.9824
G1 X118.885 Y103.464 E1.0037
G1 X118.861 Y103.592 E1.0063
G1 X118.636 Y104.620 E1.0276
G1 X118.604 Y104.746 E1.0302
G1 X118.420 Y105.394 E1.0438
G1 X118.420 Y107.960 E1.0957
G1 X116.401 Y109.979 E1.1534
G1 X116.358 Y110.052 E1.1551
G1 X116.290 Y110.162 E1.1577
G1 X115.708 Y111.040 E1.1790
G1 X115.634 Y111.146 E1.1816
G1 X114.999 Y111.987 E1.2029
G1 X114.918 Y112.087 E1.2055
G1 X114.233 Y112.887 E1.2268
G1 X114.145 Y112.983 E1.2294
G1 X113.412 Y113.739 E1.2507
G1 X113.319 Y113.829 E1.2533
G1 X112.541 Y114.538 E1.2746
G1 X112.443 Y114.623 E1.2772
G1 X111.622 Y115.283 E1.2985
G1 X111.519 Y115.361 E1.3011
G1 X110.659 Y115.969 E1.3224
G1 X110.551 Y116.041 E1.3250
G1 X109.993 Y116.387 E1.3383
G1 X107.960 Y118.420 E1.3964
G1 X105.409 Y118.420 E1.4479
G1 X105.317 Y118.449 E1.4499
G1 X105.192 Y118.485 E1.4525
G1 X104.171 Y118.742 E1.4738
G1 X104.044 Y118.769 E1.4764
G1 X103.009 Y118.963 E1.4977
G1 X102.881 Y118.983 E1.5003
G1 X101.836 Y119.112 E1.5215
G1 X101.707 Y119.124 E1.5242
G1 X100.656 Y119.189 E1.5454
G1 X100.527 Y119.193 E1.5481
G1 X99.473 Y119.193 E1.5693
G1 X99.344 Y119.189 E1.5719
G1 X98.293 Y119.124 E1.5932
G1 X98.164 Y119.112 E1.5958
G1 X97.119 Y118.983 E1.6171
G1 X96.991 Y118.963 E1.6197
G1 X95.956 Y118.769 E1.6410
G1 X95.829 Y118.742 E1.6436
G1 X94.808 Y118.485 E1.6649
G1 X94.683 Y118.449 E1.6675
G1 X94.591 Y118.420 E1.6695
G1 X92.040 Y118.420 E1.7210
G1 X90.007 Y116.387 E1.7791
G1 X89.449 Y116.041 E1.7924
G1 X89.341 Y115.969 E1.7950
G1 X88.481 Y115.361 E1.8163
G1 X88.378 Y115.283 E1.8189
G1 X87.557 Y114.623 E1.8402
G1 X87.459 Y114.538 E1.8428
G1 X86.681 Y113.829 E1.8641
G1 X86.588 Y113.739 E1.8667
G1 X85.855 Y112.983 E1.8880
G1 X85.767 Y112.887 E1.8906
G1 X85.082 Y112.087 E1.9119
G1 X85.001 Y111.987 E1.9145
G1 X84.366 Y111.146 E1.9358
G1 X84.292 Y111.040 E1.9384
G1 X83.710 Y110.162 E1.9597
G1 X83.642 Y110.052 E1.9623
G1 X83.599 Y109.979 E1.9640
G1 X81.580 Y107.960 E2.0217
G1 X81.580 Y105.394 E2.0735
G1 X81.396 Y104.746 E2.0872
G1 X81.364 Y104.620 E2.0898
G1 X81.139 Y103.591 E2.1111
G1 X81.115 Y103.463 E2.1137
G1 X80.953 Y102.416 E2.1351
G1 X80.937 Y102.289 E2.1377
G1 X80.840 Y101.247 E2.1588
G1 X80.832 Y101.117 E2.1615
G1 X80.800 Y100.065 E2.1827
G1 X80.800 Y99.935 E2.1853
G1 X80.832 Y98.883 E2.2066
G1 X80.840 Y98.753 E2.2092
G1 X80.938 Y97.705 E2.2305
G1 X80.953 Y97.576 E2.2331
G1 X81.115 Y96.536 E2.2544
G1 X81.139 Y96.408 E2.2570
G1 X81.364 Y95.380 E2.2783
G1 X81.396 Y95.254 E2.2809
G1 X81.580 Y94.606 E2.2945
G1 X81.580 Y92.040 E2.3464
G1 X83.599 Y90.021 E2.4041
G1 X83.642 Y89.948 E2.4058
G1 X83.710 Y89.838 E2.4084
G1 X84.292 Y88.960 E2.4297
G1 X84.366 Y88.854 E2.4323
G1 X85.001 Y88.013 E2.4536
G1 X85.082 Y87.913 E2.4562
G1 X85.767 Y87.113 E2.4775
G1 X85.855 Y87.017 E2.4801
G1 X86.588 Y86.261 E2.5014
G92 E0.0000
G1 E-1.0000 F1800
; feature inner perimeter
G1 X89.976 Y89.662 F4800
G1 E0.0000 F1800
G92 E0.0000
G1 X90.631 Y89.065 E0.0179 F450
G1 X91.322 Y88.509 E0.0358
G1 X92.046 Y87.996 E0.0538
G1 X92.800 Y87.529 E0.0717
G1 X93.581 Y87.110 E0.0896
G1 X94.387 Y86.739 E0.1075
G1 X95.214 Y86.419 E0.1254
G1 X96.059 Y86.150 E0.1434
G1 X96.919 Y85.934 E0.1613
G1 X97.791 Y85.771 E0.1792
G1 X98.671 Y85.662 E0.1971
G1 X99.557 Y85.607 E0.2150
G1 X100.443 Y85.607 E0.2330
G1 X101.329 Y85.662 E0.2509
G1 X102.209 Y85.771 E0.2688
G1 X103.081 Y85.934 E0.2867
G1 X103.941 Y86.150 E0.3046
G1 X104.786 Y86.419 E0.3226
G1 X105.613 Y86.739 E0.3405
G1 X106.419 Y87.110 E0.3584
G1 X107.200 Y87.529 E0.3763
G1 X107.954 Y87.996 E0.3942
G1 X108.678 Y88.509 E0.4122
G1 X109.369 Y89.065 E0.4301
G1 X110.024 Y89.662 E0.4480
G1 X110.641 Y90.299 E0.4659
G1 X111.219 Y90.972 E0.4838
G1 X111.753 Y91.680 E0.5018
G1 X112.243 Y92.419 E0.5197
G1 X112.686 Y93.188 E0.5376
G1 X113.082 Y93.982 E0.5555
G1 X113.427 Y94.798 E0.5734
G1 X113.722 Y95.635 E0.5914
G1 X113.965 Y96.488 E0.6093
G1 X114.155 Y97.354 E0.6272
