; G-Code generated by Simplify3D(R) Version 4.1.2
; Jun 17, 2021 at 12:21:08 PM
; Settings Summary
;   processName,Process1
;   applyToModels,chuck prueba 1
;   profileName,wanhao1 (modified)
;   profileVersion,2021-01-03 22:54:49
;   baseProfile,Default
;   printMaterial,PLA
;   printQuality,Medium
;   printExtruders,
;   extruderName,Primary Extruder
;   extruderToolheadNumber,0
;   extruderDiameter,0.35
;   extruderAutoWidth,0
;   extruderWidth,0.4
;   extrusionMultiplier,0.9
;   extruderUseRetract,1
;   extruderRetractionDistance,1
;   extruderExtraRestartDistance,0
;   extruderRetractionZLift,0
;   extruderRetractionSpeed,1800
;   extruderUseCoasting,0
;   extruderCoastingDistance,0.2
;   extruderUseWipe,0
;   extruderWipeDistance,5
;   primaryExtruder,0
;   layerHeight,0.2
;   topSolidLayers,4
;   bottomSolidLayers,3
;   perimeterOutlines,2
;   printPerimetersInsideOut,1
;   startPointOption,2
;   startPointOriginX,0
;   startPointOriginY,0
;   sequentialIslands,0
;   spiralVaseMode,0
;   firstLayerHeightPercentage,90
;   firstLayerWidthPercentage,100
;   firstLayerUnderspeed,0.5
;   useRaft,0
;   raftExtruder,0
;   raftTopLayers,3
;   raftBaseLayers,2
;   raftOffset,3
;   raftSeparationDistance,0.14
;   raftTopInfill,100
;   aboveRaftSpeedMultiplier,0.3
;   useSkirt,1
;   skirtExtruder,0
;   skirtLayers,1
;   skirtOutlines,2
;   skirtOffset,4
;   usePrimePillar,0
;   primePillarExtruder,999
;   primePillarWidth,12
;   primePillarLocation,7
;   primePillarSpeedMultiplier,1
;   useOozeShield,0
;   oozeShieldExtruder,999
;   oozeShieldOffset,2
;   oozeShieldOutlines,1
;   oozeShieldSidewallShape,1
;   oozeShieldSidewallAngle,30
;   oozeShieldSpeedMultiplier,1
;   infillExtruder,0
;   internalInfillPattern,Rectilinear
;   externalInfillPattern,Rectilinear
;   infillPercentage,20
;   outlineOverlapPercentage,15
;   infillExtrusionWidthPercentage,100
;   minInfillLength,5
;   infillLayerInterval,1
;   internalInfillAngles,45,-45
;   overlapInternalInfillAngles,0
;   externalInfillAngles,45,-45
;   generateSupport,1
;   supportExtruder,0
;   supportInfillPercentage,15
;   supportExtraInflation,0
;   supportBaseLayers,0
;   denseSupportExtruder,0
;   denseSupportLayers,0
;   denseSupportInfillPercentage,70
;   supportLayerInterval,1
;   supportHorizontalPartOffset,0.3
;   supportUpperSeparationLayers,1
;   supportLowerSeparationLayers,1
;   supportType,0
;   supportGridSpacing,4
;   maxOverhangAngle,45
;   supportAngles,0
;   temperatureName,Primary Extruder
;   temperatureNumber,0
;   temperatureSetpointCount,1
;   temperatureSetpointLayers,1
;   temperatureSetpointTemperatures,210
;   temperatureStabilizeAtStartup,1
;   temperatureHeatedBed,0
;   fanLayers,1,2
;   fanSpeeds,0,100
;   blipFanToFullPower,0
;   adjustSpeedForCooling,1
;   minSpeedLayerTime,15
;   minCoolingSpeedSlowdown,20
;   increaseFanForCooling,0
;   minFanLayerTime,45
;   maxCoolingFanSpeed,100
;   increaseFanForBridging,0
;   bridgingFanSpeed,100
;   use5D,1
;   relativeEdistances,0
;   allowEaxisZeroing,1
;   independentExtruderAxes,0
;   includeM10123,0
;   stickySupport,1
;   applyToolheadOffsets,0
;   gcodeXoffset,0
;   gcodeYoffset,0
;   gcodeZoffset,0
;   overrideMachineDefinition,0
;   machineTypeOverride,0
;   strokeXoverride,200
;   strokeYoverride,200
;   strokeZoverride,200
;   originOffsetXoverride,0
;   originOffsetYoverride,0
;   originOffsetZoverride,0
;   homeXdirOverride,-1
;   homeYdirOverride,-1
;   homeZdirOverride,-1
;   flipXoverride,1
;   flipYoverride,-1
;   flipZoverride,1
;   toolheadOffsets,0,0|0,0|0,0|0,0|0,0|0,0
;   overrideFirmwareConfiguration,0
;   firmwareTypeOverride,RepRap (Marlin/Repetier/Sprinter)
;   GPXconfigOverride,r2
;   baudRateOverride,115200
;   overridePrinterModels,0
;   printerModelsOverride
;   startingGcode,G28 ; home all axes
;   layerChangeGcode,
;   retractionGcode,
;   toolChangeGcode,
;   endingGcode,M104 S0 ; turn off extruder,M140 S0 ; turn off bed,G0 X0 Y0; GO HOME,M84 ; disable motors
;   exportFileFormat,gcode
;   celebration,0
;   celebrationSong,Random Song
;   postProcessing,
;   defaultSpeed,3000
;   outlineUnderspeed,0.5
;   solidInfillUnderspeed,0.8
;   supportUnderspeed,0.8
;   rapidXYspeed,4800
;   rapidZspeed,1002
;   minBridgingArea,50
;   bridgingExtraInflation,0
;   bridgingExtrusionMultiplier,1
;   bridgingSpeedMultiplier,1
;   useFixedBridgingAngle,0
;   fixedBridgingAngle,0
;   applyBridgingToPerimeters,0
;   filamentDiameters,1.75|1.75|1.75|1.75|1.75|1.75
;   filamentPricesPerKg,46|46|46|46|46|46
;   filamentDensities,1.25|1.25|1.25|1.25|1.25|1.25
;   useMinPrintHeight,0
;   minPrintHeight,0
;   useMaxPrintHeight,0
;   maxPrintHeight,0
;   useDiaphragm,0
;   diaphragmLayerInterval,20
;   robustSlicing,1
;   mergeAllIntoSolid,0
;   onlyRetractWhenCrossingOutline,1
;   retractBetweenLayers,1
;   useRetractionMinTravel,0
;   retractionMinTravel,3
;   retractWhileWiping,0
;   onlyWipeOutlines,1
;   avoidCrossingOutline,0
;   maxMovementDetourFactor,3
;   toolChangeRetractionDistance,12
;   toolChangeExtraRestartDistance,-0.5
;   toolChangeRetractionSpeed,600
;   externalThinWallType,0
;   internalThinWallType,2
;   thinWallAllowedOverlapPercentage,10
;   singleExtrusionMinLength,1
;   singleExtrusionMinPrintingWidthPercentage,50
;   singleExtrusionMaxPrintingWidthPercentage,200
;   singleExtrusionEndpointExtension,0.2
;   horizontalSizeCompensation,0
G90
M82
M106 S0
M104 S210 T0
M109 S210 T0
G28 ; home all axes
; process Process1
; layer 1, Z = 0.180
T0
G92 E0.0000
G1 E-1.0000 F1800
; feature skirt
; tool H0.180 W0.400
G1 Z0.180 F1002
G1 X86.077 Y86.205 F4800
G1 E0.0000 F1800
G92 E0.0000
G1 X86.205 Y86.077 E0.0049 F1500
G1 X87.202 Y85.155 E0.0415
G1 X87.339 Y85.037 E0.0463
G1 X88.406 Y84.196 E0.0829
G1 X88.552 Y84.090 E0.0878
G1 X89.682 Y83.335 E0.1244
G1 X89.836 Y83.241 E0.1293
G1 X91.021 Y82.577 E0.1659
G1 X91.182 Y82.495 E0.1707
G1 X92.416 Y81.927 E0.2073
G1 X92.583 Y81.857 E0.2122
G1 X93.857 Y81.387 E0.2488
G1 X94.029 Y81.331 E0.2537
G1 X95.337 Y80.963 E0.2903
G1 X95.512 Y80.920 E0.2951
G1 X96.845 Y80.655 E0.3317
G1 X97.023 Y80.627 E0.3366
G1 X98.372 Y80.468 E0.3732
G1 X98.552 Y80.453 E0.3781
G1 X99.910 Y80.400 E0.4147
G1 X100.090 Y80.400 E0.4195
G1 X101.448 Y80.453 E0.4561
G1 X101.628 Y80.468 E0.4610
G1 X102.977 Y80.627 E0.4976
G1 X103.155 Y80.655 E0.5024
G1 X104.488 Y80.920 E0.5390
G1 X104.663 Y80.963 E0.5439
G1 X105.971 Y81.331 E0.5805
G1 X106.143 Y81.387 E0.5854
G1 X107.417 Y81.857 E0.6220
G1 X107.584 Y81.927 E0.6268
G1 X108.818 Y82.495 E0.6634
G1 X108.979 Y82.577 E0.6683
G1 X110.164 Y83.241 E0.7049
G1 X110.318 Y83.335 E0.7098
G1 X111.448 Y84.090 E0.7464
G1 X111.594 Y84.196 E0.7512
G1 X112.661 Y85.037 E0.7878
G1 X112.798 Y85.155 E0.7927
G1 X113.795 Y86.077 E0.8293
G1 X113.923 Y86.205 E0.8342
G1 X114.845 Y87.202 E0.8708
G1 X114.963 Y87.339 E0.8756
G1 X115.804 Y88.406 E0.9122
G1 X115.910 Y88.552 E0.9171
G1 X116.665 Y89.682 E0.9537
G1 X116.759 Y89.836 E0.9586
G1 X117.423 Y91.021 E0.9952
G1 X117.505 Y91.182 E1.0000
G1 X118.073 Y92.416 E1.0366
G1 X118.143 Y92.583 E1.0415
G1 X118.613 Y93.857 E1.0781
G1 X118.669 Y94.029 E1.0830
G1 X119.037 Y95.337 E1.1196
G1 X119.080 Y95.512 E1.1244
G1 X119.345 Y96.845 E1.1610
G1 X119.373 Y97.023 E1.1659
G1 X119.532 Y98.372 E1.2025
G1 X119.547 Y98.552 E1.2074
G1 X119.600 Y99.910 E1.2440
G1 X119.600 Y100.090 E1.2488
G1 X119.547 Y101.448 E1.2854
G1 X119.532 Y101.628 E1.2903
G1 X119.373 Y102.977 E1.3269
G1 X119.345 Y103.155 E1.3317
G1 X119.080 Y104.488 E1.3683
G1 X119.037 Y104.663 E1.3732
G1 X118.669 Y105.971 E1.4098
G1 X118.613 Y106.143 E1.4147
G1 X118.143 Y107.417 E1.4513
G1 X118.073 Y107.584 E1.4561
G1 X117.505 Y108.818 E1.4927
G1 X117.423 Y108.979 E1.4976
G1 X116.759 Y110.164 E1.5342
G1 X116.665 Y110.318 E1.5391
G1 X115.910 Y111.448 E1.5757
G1 X115.804 Y111.594 E1.5805
G1 X114.963 Y112.661 E1.6171
G1 X114.845 Y112.798 E1.6220
G1 X113.923 Y113.795 E1.6586
G1 X113.795 Y113.923 E1.6635
G1 X112.798 Y114.845 E1.7001
G1 X112.661 Y114.963 E1.7049
G1 X111.594 Y115.804 E1.7415
G1 X111.448 Y115.910 E1.7464
G1 X110.318 Y116.665 E1.7830
G1 X110.164 Y116.759 E1.7879
G1 X108.979 Y117.423 E1.8245
G1 X108.818 Y117.505 E1.8293
G1 X107.584 Y118.073 E1.8659
G1 X107.417 Y118.143 E1.8708
G1 X106.143 Y118.613 E1.9074
G1 X105.971 Y118.669 E1.9123
G1 X104.663 Y119.037 E1.9489
G1 X104.488 Y119.080 E1.9537
G1 X103.155 Y119.345 E1.9903
G1 X102.977 Y119.373 E1.9952
G1 X101.628 Y119.532 E2.0318
G1 X101.448 Y119.547 E2.0367
G1 X100.090 Y119.600 E2.0733
G1 X99.910 Y119.600 E2.0781
G1 X98.552 Y119.547 E2.1147
G1 X98.372 Y119.532 E2.1196
G1 X97.023 Y119.373 E2.1562
G1 X96.845 Y119.345 E2.1611
G1 X95.512 Y119.080 E2.1976
G1 X95.337 Y119.037 E2.2025
G1 X94.029 Y118.669 E2.2391
G1 X93.857 Y118.613 E2.2440
G1 X92.583 Y118.143 E2.2806
G1 X92.416 Y118.073 E2.2854
G1 X91.182 Y117.505 E2.3220
G1 X91.021 Y117.423 E2.3269
G1 X89.836 Y116.759 E2.3635
G1 X89.682 Y116.665 E2.3684
G1 X88.552 Y115.910 E2.4050
G1 X88.406 Y115.804 E2.4098
G1 X87.339 Y114.963 E2.4464
G1 X87.202 Y114.845 E2.4513
G1 X86.205 Y113.923 E2.4879
G1 X86.077 Y113.795 E2.4928
G1 X85.155 Y112.798 E2.5294
G1 X85.037 Y112.661 E2.5342
G1 X84.196 Y111.594 E2.5708
G1 X84.090 Y111.448 E2.5757
G1 X83.335 Y110.318 E2.6123
G1 X83.241 Y110.164 E2.6172
G1 X82.577 Y108.979 E2.6538
G1 X82.495 Y108.818 E2.6586
G1 X81.927 Y107.584 E2.6952
G1 X81.857 Y107.417 E2.7001
G1 X81.387 Y106.143 E2.7367
G1 X81.331 Y105.971 E2.7416
G1 X80.962 Y104.660 E2.7783
G1 X80.918 Y104.476 E2.7833
G1 X80.647 Y103.091 E2.8214
G1 X80.620 Y102.920 E2.8260
G1 X80.468 Y101.628 E2.8611
G1 X80.453 Y101.448 E2.8660
G1 X80.400 Y100.090 E2.9026
G1 X80.400 Y99.910 E2.9074
G1 X80.453 Y98.552 E2.9440
G1 X80.468 Y98.372 E2.9489
G1 X80.627 Y97.023 E2.9855
G1 X80.655 Y96.845 E2.9903
G1 X80.920 Y95.512 E3.0269
G1 X80.963 Y95.337 E3.0318
G1 X81.331 Y94.029 E3.0684
G1 X81.387 Y93.857 E3.0733
G1 X81.857 Y92.583 E3.1099
G1 X81.927 Y92.416 E3.1147
G1 X82.495 Y91.182 E3.1513
G1 X82.577 Y91.021 E3.1562
G1 X83.241 Y89.836 E3.1928
G1 X83.335 Y89.682 E3.1977
G1 X84.090 Y88.552 E3.2343
G1 X84.196 Y88.406 E3.2391
G1 X85.037 Y87.339 E3.2757
G1 X85.155 Y87.202 E3.2806
G1 X86.077 Y86.205 E3.3172
G92 E0.0000
G1 E-1.0000 F1800
G1 X86.365 Y86.482 F4800
G1 E0.0000 F1800
G92 E0.0000
G1 X86.482 Y86.365 E0.0044 F1500
G1 X87.468 Y85.454 E0.0406
G1 X87.593 Y85.347 E0.0451
G1 X88.648 Y84.515 E0.0812
G1 X88.781 Y84.418 E0.0857
G1 X89.898 Y83.672 E0.1219
G1 X90.038 Y83.586 E0.1263
G1 X91.210 Y82.930 E0.1625
G1 X91.357 Y82.855 E0.1669
G1 X92.576 Y82.293 E0.2031
G1 X92.729 Y82.230 E0.2075
G1 X93.988 Y81.765 E0.2437
G1 X94.145 Y81.714 E0.2482
G1 X95.438 Y81.350 E0.2843
G1 X95.598 Y81.311 E0.2888
G1 X96.915 Y81.049 E0.3249
G1 X97.078 Y81.023 E0.3294
G1 X98.411 Y80.866 E0.3656
G1 X98.576 Y80.853 E0.3700
G1 X99.918 Y80.800 E0.4062
G1 X100.082 Y80.800 E0.4106
G1 X101.424 Y80.853 E0.4468
G1 X101.589 Y80.866 E0.4512
G1 X102.922 Y81.023 E0.4874
G1 X103.085 Y81.049 E0.4919
G1 X104.402 Y81.311 E0.5280
G1 X104.562 Y81.350 E0.5325
G1 X105.855 Y81.714 E0.5687
G1 X106.012 Y81.765 E0.5731
G1 X107.271 Y82.230 E0.6093
G1 X107.424 Y82.293 E0.6137
G1 X108.643 Y82.855 E0.6499
G1 X108.790 Y82.930 E0.6543
G1 X109.962 Y83.586 E0.6905
G1 X110.102 Y83.672 E0.6950
G1 X111.219 Y84.418 E0.7311
G1 X111.352 Y84.515 E0.7356
G1 X112.407 Y85.347 E0.7718
G1 X112.532 Y85.454 E0.7762
G1 X113.518 Y86.365 E0.8124
G1 X113.635 Y86.482 E0.8168
G1 X114.546 Y87.468 E0.8530
G1 X114.653 Y87.593 E0.8574
G1 X115.485 Y88.648 E0.8936
G1 X115.582 Y88.781 E0.8981
G1 X116.328 Y89.898 E0.9342
G1 X116.414 Y90.038 E0.9387
G1 X117.070 Y91.210 E0.9748
G1 X117.145 Y91.357 E0.9793
G1 X117.707 Y92.576 E1.0155
G1 X117.770 Y92.729 E1.0199
G1 X118.235 Y93.988 E1.0561
G1 X118.286 Y94.145 E1.0605
G1 X118.650 Y95.438 E1.0967
G1 X118.689 Y95.598 E1.1011
G1 X118.951 Y96.915 E1.1373
G1 X118.977 Y97.078 E1.1418
G1 X119.134 Y98.411 E1.1779
G1 X119.147 Y98.576 E1.1824
G1 X119.200 Y99.918 E1.2186
G1 X119.200 Y100.082 E1.2230
G1 X119.147 Y101.424 E1.2592
G1 X119.134 Y101.589 E1.2636
G1 X118.977 Y102.922 E1.2998
G1 X118.951 Y103.085 E1.3042
G1 X118.689 Y104.402 E1.3404
G1 X118.650 Y104.562 E1.3449
G1 X118.286 Y105.855 E1.3810
G1 X118.235 Y106.012 E1.3855
G1 X117.770 Y107.271 E1.4217
G1 X117.707 Y107.424 E1.4261
G1 X117.145 Y108.643 E1.4623
G1 X117.070 Y108.790 E1.4667
G1 X116.414 Y109.962 E1.5029
G1 X116.328 Y110.102 E1.5073
G1 X115.582 Y111.219 E1.5435
G1 X115.485 Y111.352 E1.5480
G1 X114.653 Y112.407 E1.5841
G1 X114.546 Y112.532 E1.5886
G1 X113.635 Y113.518 E1.6247
G1 X113.518 Y113.635 E1.6292
G1 X112.532 Y114.546 E1.6654
G1 X112.407 Y114.653 E1.6698
G1 X111.352 Y115.485 E1.7060
G1 X111.219 Y115.582 E1.7104
G1 X110.102 Y116.328 E1.7466
G1 X109.962 Y116.414 E1.7510
G1 X108.790 Y117.070 E1.7872
G1 X108.643 Y117.145 E1.7917
G1 X107.424 Y117.707 E1.8278
G1 X107.271 Y117.770 E1.8323
G1 X106.012 Y118.235 E1.8685
G1 X105.855 Y118.286 E1.8729
G1 X104.562 Y118.650 E1.9091
G1 X104.402 Y118.689 E1.9135
G1 X103.085 Y118.951 E1.9497
G1 X102.922 Y118.977 E1.9541
G1 X101.589 Y119.134 E1.9903
G1 X101.424 Y119.147 E1.9948
G1 X100.082 Y119.200 E2.0309
G1 X99.918 Y119.200 E2.0354
G1 X98.576 Y119.147 E2.0715
G1 X98.411 Y119.134 E2.0760
G1 X97.078 Y118.977 E2.1122
G1 X96.915 Y118.951 E2.1166
G1 X95.598 Y118.689 E2.1528
G1 X95.438 Y118.650 E2.1572
G1 X94.145 Y118.286 E2.1934
G1 X93.988 Y118.235 E2.1978
G1 X92.729 Y117.770 E2.2340
G1 X92.576 Y117.707 E2.2385
G1 X91.357 Y117.145 E2.2746
G1 X91.210 Y117.070 E2.2791
G1 X90.038 Y116.414 E2.3153
G1 X89.898 Y116.328 E2.3197
G1 X88.781 Y115.582 E2.3559
G1 X88.648 Y115.485 E2.3603
G1 X87.593 Y114.653 E2.3965
G1 X87.468 Y114.546 E2.4009
G1 X86.482 Y113.635 E2.4371
G1 X86.365 Y113.518 E2.4416
G1 X85.454 Y112.532 E2.4777
G1 X85.347 Y112.407 E2.4822
G1 X84.515 Y111.352 E2.5184
G1 X84.418 Y111.219 E2.5228
G1 X83.672 Y110.102 E2.5590
G1 X83.586 Y109.962 E2.5634
G1 X82.930 Y108.790 E2.5996
G1 X82.855 Y108.643 E2.6040
G1 X82.293 Y107.424 E2.6402
G1 X82.230 Y107.271 E2.6447
G1 X81.765 Y106.012 E2.6808
G1 X81.714 Y105.855 E2.6853
G1 X81.349 Y104.559 E2.7215
G1 X81.309 Y104.392 E2.7262
G1 X81.041 Y103.022 E2.7638
G1 X81.017 Y102.866 E2.7680
G1 X80.866 Y101.589 E2.8027
G1 X80.853 Y101.424 E2.8071
G1 X80.800 Y100.082 E2.8433
G1 X80.800 Y99.918 E2.8477
G1 X80.853 Y98.576 E2.8839
G1 X80.866 Y98.411 E2.8884
G1 X81.023 Y97.078 E2.9245
G1 X81.049 Y96.915 E2.9290
G1 X81.311 Y95.598 E2.9652
G1 X81.350 Y95.438 E2.9696
G1 X81.714 Y94.145 E3.0058
G1 X81.765 Y93.988 E3.0102
G1 X82.230 Y92.729 E3.0464
G1 X82.293 Y92.576 E3.0508
G1 X82.855 Y91.357 E3.0870
G1 X82.930 Y91.210 E3.0915
G1 X83.586 Y90.038 E3.1276
G1 X83.672 Y89.898 E3.1321
G1 X84.418 Y88.781 E3.1682
G1 X84.515 Y88.648 E3.1727
G1 X85.347 Y87.593 E3.2089
G1 X85.454 Y87.468 E3.2133
G1 X86.365 Y86.482 E3.2495
G92 E0.0000
G1 E-1.0000 F1800
; feature inner perimeter
G1 X89.818 Y89.818 F4800
G1 E0.0000 F1800
G92 E0.0000
G1 X90.648 Y89.050 E0.0305 F1125
G1 X91.536 Y88.351 E0.0609
G1 X92.476 Y87.722 E0.0914
G1 X93.463 Y87.170 E0.1218
G1 X94.490 Y86.697 E0.1523
G1 X95.550 Y86.305 E0.1828
G1 X96.638 Y85.998 E0.2132
G1 X97.747 Y85.778 E0.2437
G1 X98.870 Y85.645 E0.2741
G1 X100.000 Y85.600 E0.3046
G1 X101.130 Y85.645 E0.3351
G1 X102.253 Y85.778 E0.3655
G1 X103.362 Y85.998 E0.3960
G1 X104.450 Y86.305 E0.4264
G1 X105.510 Y86.697 E0.4569
G1 X106.537 Y87.170 E0.4874
G1 X107.524 Y87.722 E0.5178
G1 X108.464 Y88.351 E0.5483
G1 X109.352 Y89.050 E0.5787
G1 X110.182 Y89.818 E0.6092
G1 X110.950 Y90.648 E0.6397
G1 X111.649 Y91.536 E0.6701
G1 X112.278 Y92.476 E0.7006
G1 X112.830 Y93.463 E0.7311
G1 X113.303 Y94.490 E0.7615
G1 X113.695 Y95.550 E0.7920
G1 X114.002 Y96.638 E0.8224
G1 X114.222 Y97.747 E0.8529
G1 X114.355 Y98.870 E0.8834
G1 X114.400 Y100.000 E0.9138
G1 X114.355 Y101.130 E0.9443
G1 X114.222 Y102.253 E0.9747
G1 X114.002 Y103.362 E1.0052
G1 X113.695 Y104.450 E1.0357
G1 X113.303 Y105.510 E1.0661
G1 X112.830 Y106.537 E1.0966
G1 X112.278 Y107.524 E1.1270
G1 X111.649 Y108.464 E1.1575
G1 X110.950 Y109.352 E1.1880
G1 X110.182 Y110.182 E1.2184
G1 X109.352 Y110.950 E1.2489
G1 X108.464 Y111.649 E1.2793
