; G-Code generated by Simplify3D(R) Version 4.1.2
; Jun 11, 2021 at 4:32:05 PM
; Settings Summary
;   processName,Process1
;   applyToModels,disco base
;   profileName,wanhao1 (modified)
;   profileVersion,2021-01-03 22:54:49
;   baseProfile,Default
;   printMaterial,PLA
;   printQuality,Medium
;   printExtruders,
;   extruderName,Primary Extruder
;   extruderToolheadNumber,0
;   extruderDiameter,0.35
;   extruderAutoWidth,0
;   extruderWidth,0.4
;   extrusionMultiplier,0.9
;   extruderUseRetract,1
;   extruderRetractionDistance,1
;   extruderExtraRestartDistance,0
;   extruderRetractionZLift,0
;   extruderRetractionSpeed,1800
;   extruderUseCoasting,0
;   extruderCoastingDistance,0.2
;   extruderUseWipe,0
;   extruderWipeDistance,5
;   primaryExtruder,0
;   layerHeight,0.3
;   topSolidLayers,4
;   bottomSolidLayers,3
;   perimeterOutlines,2
;   printPerimetersInsideOut,1
;   startPointOption,2
;   startPointOriginX,0
;   startPointOriginY,0
;   sequentialIslands,0
;   spiralVaseMode,0
;   firstLayerHeightPercentage,90
;   firstLayerWidthPercentage,100
;   firstLayerUnderspeed,0.5
;   useRaft,0
;   raftExtruder,0
;   raftTopLayers,3
;   raftBaseLayers,2
;   raftOffset,3
;   raftSeparationDistance,0.14
;   raftTopInfill,100
;   aboveRaftSpeedMultiplier,0.3
;   useSkirt,1
;   skirtExtruder,0
;   skirtLayers,1
;   skirtOutlines,2
;   skirtOffset,4
;   usePrimePillar,0
;   primePillarExtruder,999
;   primePillarWidth,12
;   primePillarLocation,7
;   primePillarSpeedMultiplier,1
;   useOozeShield,0
;   oozeShieldExtruder,999
;   oozeShieldOffset,2
;   oozeShieldOutlines,1
;   oozeShieldSidewallShape,1
;   oozeShieldSidewallAngle,30
;   oozeShieldSpeedMultiplier,1
;   infillExtruder,0
;   internalInfillPattern,Rectilinear
;   externalInfillPattern,Rectilinear
;   infillPercentage,50
;   outlineOverlapPercentage,15
;   infillExtrusionWidthPercentage,100
;   minInfillLength,5
;   infillLayerInterval,1
;   internalInfillAngles,45,-45
;   overlapInternalInfillAngles,0
;   externalInfillAngles,45,-45
;   generateSupport,1
;   supportExtruder,0
;   supportInfillPercentage,15
;   supportExtraInflation,0
;   supportBaseLayers,0
;   denseSupportExtruder,0
;   denseSupportLayers,0
;   denseSupportInfillPercentage,70
;   supportLayerInterval,1
;   supportHorizontalPartOffset,0.3
;   supportUpperSeparationLayers,1
;   supportLowerSeparationLayers,1
;   supportType,0
;   supportGridSpacing,4
;   maxOverhangAngle,45
;   supportAngles,0
;   temperatureName,Primary Extruder
;   temperatureNumber,0
;   temperatureSetpointCount,1
;   temperatureSetpointLayers,1
;   temperatureSetpointTemperatures,210
;   temperatureStabilizeAtStartup,1
;   temperatureHeatedBed,0
;   fanLayers,1,2
;   fanSpeeds,0,100
;   blipFanToFullPower,0
;   adjustSpeedForCooling,1
;   minSpeedLayerTime,15
;   minCoolingSpeedSlowdown,20
;   increaseFanForCooling,0
;   minFanLayerTime,45
;   maxCoolingFanSpeed,100
;   increaseFanForBridging,0
;   bridgingFanSpeed,100
;   use5D,1
;   relativeEdistances,0
;   allowEaxisZeroing,1
;   independentExtruderAxes,0
;   includeM10123,0
;   stickySupport,1
;   applyToolheadOffsets,0
;   gcodeXoffset,0
;   gcodeYoffset,0
;   gcodeZoffset,0
;   overrideMachineDefinition,0
;   machineTypeOverride,0
;   strokeXoverride,200
;   strokeYoverride,200
;   strokeZoverride,200
;   originOffsetXoverride,0
;   originOffsetYoverride,0
;   originOffsetZoverride,0
;   homeXdirOverride,-1
;   homeYdirOverride,-1
;   homeZdirOverride,-1
;   flipXoverride,1
;   flipYoverride,-1
;   flipZoverride,1
;   toolheadOffsets,0,0|0,0|0,0|0,0|0,0|0,0
;   overrideFirmwareConfiguration,0
;   firmwareTypeOverride,RepRap (Marlin/Repetier/Sprinter)
;   GPXconfigOverride,r2
;   baudRateOverride,115200
;   overridePrinterModels,0
;   printerModelsOverride
;   startingGcode,G28 ; home all axes
;   layerChangeGcode,
;   retractionGcode,
;   toolChangeGcode,
;   endingGcode,M104 S0 ; turn off extruder,M140 S0 ; turn off bed,G0 X0 Y0; GO HOME,M84 ; disable motors
;   exportFileFormat,gcode
;   celebration,0
;   celebrationSong,Random Song
;   postProcessing,
;   defaultSpeed,4800
;   outlineUnderspeed,0.5
;   solidInfillUnderspeed,0.8
;   supportUnderspeed,0.8
;   rapidXYspeed,4800
;   rapidZspeed,1002
;   minBridgingArea,50
;   bridgingExtraInflation,0
;   bridgingExtrusionMultiplier,1
;   bridgingSpeedMultiplier,1
;   useFixedBridgingAngle,0
;   fixedBridgingAngle,0
;   applyBridgingToPerimeters,0
;   filamentDiameters,1.75|1.75|1.75|1.75|1.75|1.75
;   filamentPricesPerKg,46|46|46|46|46|46
;   filamentDensities,1.25|1.25|1.25|1.25|1.25|1.25
;   useMinPrintHeight,0
;   minPrintHeight,0
;   useMaxPrintHeight,0
;   maxPrintHeight,0
;   useDiaphragm,0
;   diaphragmLayerInterval,20
;   robustSlicing,1
;   mergeAllIntoSolid,0
;   onlyRetractWhenCrossingOutline,1
;   retractBetweenLayers,1
;   useRetractionMinTravel,0
;   retractionMinTravel,3
;   retractWhileWiping,0
;   onlyWipeOutlines,1
;   avoidCrossingOutline,0
;   maxMovementDetourFactor,3
;   toolChangeRetractionDistance,12
;   toolChangeExtraRestartDistance,-0.5
;   toolChangeRetractionSpeed,600
;   externalThinWallType,0
;   internalThinWallType,2
;   thinWallAllowedOverlapPercentage,10
;   singleExtrusionMinLength,1
;   singleExtrusionMinPrintingWidthPercentage,50
;   singleExtrusionMaxPrintingWidthPercentage,200
;   singleExtrusionEndpointExtension,0.2
;   horizontalSizeCompensation,0
G90
M82
M106 S0
M104 S210 T0
M109 S210 T0
G28 ; home all axes
; process Process1
; layer 1, Z = 0.270
T0
G92 E0.0000
G1 E-1.0000 F1800
; feature skirt
; tool H0.270 W0.400
G1 Z0.270 F1002
G1 X55.394 Y53.260 F4800
G1 E0.0000 F1800
G92 E0.0000
G1 X58.164 Y50.766 E0.1506 F2400
G1 X58.269 Y50.677 E0.1562
G1 X61.183 Y48.353 E0.3068
G1 X61.293 Y48.270 E0.3124
G1 X64.341 Y46.124 E0.4630
G1 X64.456 Y46.049 E0.4686
G1 X67.627 Y44.089 E0.6192
G1 X67.746 Y44.020 E0.6248
G1 X71.029 Y42.254 E0.7754
G1 X71.152 Y42.192 E0.7810
G1 X74.534 Y40.626 E0.9316
G1 X74.660 Y40.571 E0.9372
G1 X78.130 Y39.210 E1.0878
G1 X78.260 Y39.163 E1.0934
G1 X81.805 Y38.011 E1.2440
G1 X81.937 Y37.973 E1.2496
G1 X85.545 Y37.035 E1.4002
G1 X85.679 Y37.004 E1.4057
G1 X89.336 Y36.284 E1.5564
G1 X89.472 Y36.261 E1.5619
G1 X93.166 Y35.761 E1.7126
G1 X93.302 Y35.747 E1.7181
G1 X97.020 Y35.468 E1.8688
G1 X97.157 Y35.462 E1.8743
G1 X100.884 Y35.406 E2.0250
G1 X101.022 Y35.408 E2.0305
G1 X104.745 Y35.575 E2.1812
G1 X104.883 Y35.586 E2.1867
G1 X108.590 Y35.975 E2.3374
G1 X108.726 Y35.994 E2.3429
G1 X112.403 Y36.605 E2.4935
G1 X112.538 Y36.631 E2.4991
G1 X116.172 Y37.461 E2.6497
G1 X116.306 Y37.495 E2.6553
G1 X119.884 Y38.540 E2.8059
G1 X120.015 Y38.583 E2.8115
G1 X123.524 Y39.840 E2.9621
G1 X123.652 Y39.891 E2.9677
G1 X127.079 Y41.356 E3.1183
G1 X127.204 Y41.414 E3.1239
G1 X130.538 Y43.081 E3.2745
G1 X130.659 Y43.146 E3.2801
G1 X133.887 Y45.010 E3.4307
G1 X134.004 Y45.082 E3.4363
G1 X137.115 Y47.136 E3.5869
G1 X137.228 Y47.215 E3.5925
G1 X140.210 Y49.451 E3.7431
G1 X140.318 Y49.537 E3.7487
G1 X143.161 Y51.947 E3.8993
G1 X143.264 Y52.039 E3.9049
G1 X145.958 Y54.615 E4.0555
G1 X146.054 Y54.713 E4.0611
G1 X148.590 Y57.445 E4.2117
G1 X148.680 Y57.549 E4.2172
G1 X151.048 Y60.428 E4.3679
G1 X151.132 Y60.537 E4.3734
G1 X153.323 Y63.553 E4.5241
G1 X153.400 Y63.666 E4.5296
G1 X155.407 Y66.808 E4.6803
G1 X155.478 Y66.926 E4.6858
G1 X157.293 Y70.181 E4.8365
G1 X157.356 Y70.304 E4.8420
G1 X158.974 Y73.662 E4.9927
G1 X159.030 Y73.788 E4.9982
G1 X160.443 Y77.237 E5.1489
G1 X160.492 Y77.366 E5.1544
G1 X161.696 Y80.893 E5.3050
G1 X161.737 Y81.025 E5.3106
G1 X162.729 Y84.618 E5.4612
G1 X162.761 Y84.751 E5.4668
G1 X163.536 Y88.398 E5.6174
G1 X163.561 Y88.533 E5.6230
G1 X164.116 Y92.219 E5.7736
G1 X164.133 Y92.355 E5.7792
G1 X164.467 Y96.068 E5.9298
G1 X164.475 Y96.205 E5.9354
G1 X164.587 Y99.931 E6.0860
G1 X164.587 Y100.069 E6.0916
G1 X164.475 Y103.795 E6.2422
G1 X164.467 Y103.932 E6.2478
G1 X164.133 Y107.645 E6.3984
G1 X164.116 Y107.781 E6.4040
G1 X163.561 Y111.467 E6.5546
G1 X163.536 Y111.602 E6.5602
G1 X162.761 Y115.249 E6.7108
G1 X162.729 Y115.382 E6.7164
G1 X161.737 Y118.975 E6.8670
G1 X161.696 Y119.107 E6.8726
G1 X160.492 Y122.634 E7.0232
G1 X160.443 Y122.763 E7.0287
G1 X159.030 Y126.212 E7.1794
G1 X158.974 Y126.338 E7.1849
G1 X157.356 Y129.696 E7.3356
G1 X157.293 Y129.819 E7.3411
G1 X155.478 Y133.074 E7.4918
G1 X155.407 Y133.192 E7.4973
G1 X153.400 Y136.334 E7.6480
G1 X153.323 Y136.447 E7.6535
G1 X151.132 Y139.463 E7.8042
G1 X151.048 Y139.572 E7.8097
G1 X148.680 Y142.451 E7.9604
G1 X148.590 Y142.555 E7.9659
G1 X146.054 Y145.287 E8.1165
G1 X145.958 Y145.385 E8.1221
G1 X143.264 Y147.961 E8.2727
G1 X143.161 Y148.053 E8.2783
G1 X140.318 Y150.463 E8.4289
G1 X140.210 Y150.549 E8.4345
G1 X137.228 Y152.785 E8.5851
G1 X137.115 Y152.864 E8.5907
G1 X134.004 Y154.918 E8.7413
G1 X133.887 Y154.990 E8.7469
G1 X130.659 Y156.854 E8.8975
G1 X130.538 Y156.919 E8.9031
G1 X127.204 Y158.586 E9.0537
G1 X127.079 Y158.644 E9.0593
G1 X123.652 Y160.109 E9.2099
G1 X123.524 Y160.160 E9.2155
G1 X120.014 Y161.417 E9.3661
G1 X119.884 Y161.460 E9.3717
G1 X116.306 Y162.505 E9.5223
G1 X116.172 Y162.539 E9.5279
G1 X112.538 Y163.369 E9.6785
G1 X112.403 Y163.395 E9.6841
G1 X108.726 Y164.006 E9.8347
G1 X108.590 Y164.025 E9.8402
G1 X104.883 Y164.414 E9.9909
G1 X104.746 Y164.424 E9.9964
G1 X101.022 Y164.592 E10.1471
G1 X100.884 Y164.594 E10.1526
G1 X97.157 Y164.538 E10.3033
G1 X97.020 Y164.532 E10.3088
G1 X93.302 Y164.253 E10.4595
G1 X93.166 Y164.239 E10.4650
G1 X89.472 Y163.739 E10.6157
G1 X89.336 Y163.716 E10.6212
G1 X85.679 Y162.996 E10.7719
G1 X85.545 Y162.965 E10.7774
G1 X81.937 Y162.027 E10.9280
G1 X81.805 Y161.989 E10.9336
G1 X78.260 Y160.837 E11.0842
G1 X78.130 Y160.790 E11.0898
G1 X74.660 Y159.429 E11.2404
G1 X74.534 Y159.374 E11.2460
G1 X71.152 Y157.808 E11.3966
G1 X71.029 Y157.746 E11.4022
G1 X67.746 Y155.980 E11.5528
G1 X67.627 Y155.911 E11.5584
G1 X64.456 Y153.951 E11.7090
G1 X64.341 Y153.876 E11.7146
G1 X61.293 Y151.730 E11.8652
G1 X61.183 Y151.647 E11.8708
G1 X58.269 Y149.323 E12.0214
G1 X58.164 Y149.234 E12.0270
G1 X55.394 Y146.740 E12.1776
G1 X55.294 Y146.645 E12.1832
G1 X52.678 Y143.990 E12.3338
G1 X52.585 Y143.889 E12.3394
G1 X50.132 Y141.082 E12.4900
G1 X50.045 Y140.975 E12.4956
G1 X47.765 Y138.027 E12.6462
G1 X47.684 Y137.915 E12.6517
G1 X45.584 Y134.835 E12.8024
G1 X45.510 Y134.719 E12.8079
G1 X43.598 Y131.520 E12.9586
G1 X43.531 Y131.399 E12.9641
G1 X41.814 Y128.091 E13.1148
G1 X41.754 Y127.967 E13.1203
G1 X40.238 Y124.562 E13.2710
G1 X40.186 Y124.434 E13.2765
G1 X38.876 Y120.944 E13.4272
G1 X38.832 Y120.814 E13.4327
G1 X37.733 Y117.252 E13.5834
G1 X37.696 Y117.120 E13.5889
G1 X36.813 Y113.498 E13.7395
G1 X36.784 Y113.364 E13.7451
G1 X36.118 Y109.696 E13.8957
G1 X36.098 Y109.560 E13.9013
G1 X35.653 Y105.859 E14.0519
G1 X35.640 Y105.722 E14.0575
G1 X35.418 Y102.001 E14.2081
G1 X35.413 Y101.864 E14.2137
G1 X35.413 Y98.136 E14.3643
G1 X35.418 Y97.999 E14.3699
G1 X35.640 Y94.278 E14.5205
G1 X35.653 Y94.141 E14.5261
G1 X36.098 Y90.440 E14.6767
G1 X36.118 Y90.304 E14.6823
G1 X36.784 Y86.636 E14.8329
G1 X36.813 Y86.502 E14.8385
G1 X37.696 Y82.880 E14.9891
G1 X37.733 Y82.748 E14.9947
G1 X38.832 Y79.185 E15.1453
G1 X38.877 Y79.052 E15.1510
G1 X40.215 Y75.499 E15.3044
G1 X40.267 Y75.374 E15.3099
G1 X41.754 Y72.033 E15.4577
G1 X41.814 Y71.909 E15.4632
G1 X43.531 Y68.601 E15.6139
G1 X43.598 Y68.480 E15.6194
G1 X45.510 Y65.281 E15.7701
G1 X45.584 Y65.165 E15.7756
G1 X47.684 Y62.085 E15.9263
G1 X47.765 Y61.973 E15.9318
G1 X50.045 Y59.025 E16.0825
G1 X50.132 Y58.918 E16.0880
G1 X52.585 Y56.111 E16.2387
G1 X52.678 Y56.010 E16.2442
G1 X55.294 Y53.355 E16.3948
G1 X55.394 Y53.260 E16.4004
G92 E0.0000
G1 E-1.0000 F1800
G1 X55.666 Y53.553 F4800
G1 E0.0000 F1800
G92 E0.0000
G1 X58.427 Y51.067 E0.1501 F2400
G1 X58.523 Y50.986 E0.1552
G1 X61.428 Y48.669 E0.3054
G1 X61.528 Y48.594 E0.3105
G1 X64.567 Y46.455 E0.4606
G1 X64.671 Y46.386 E0.4657
G1 X67.832 Y44.433 E0.6158
G1 X67.941 Y44.370 E0.6209
G1 X71.213 Y42.609 E0.7711
G1 X71.325 Y42.553 E0.7761
G1 X74.697 Y40.991 E0.9263
G1 X74.812 Y40.942 E0.9314
G1 X78.271 Y39.584 E1.0815
G1 X78.389 Y39.542 E1.0866
G1 X81.923 Y38.394 E1.2367
G1 X82.043 Y38.358 E1.2418
G1 X85.639 Y37.424 E1.3920
G1 X85.762 Y37.396 E1.3970
G1 X89.407 Y36.678 E1.5472
G1 X89.531 Y36.657 E1.5523
G1 X93.213 Y36.158 E1.7024
G1 X93.338 Y36.145 E1.7075
G1 X97.043 Y35.867 E1.8576
G1 X97.169 Y35.862 E1.8627
G1 X100.884 Y35.806 E2.0129
G1 X101.010 Y35.808 E2.0180
G1 X104.722 Y35.975 E2.1681
G1 X104.847 Y35.984 E2.1732
G1 X108.542 Y36.373 E2.3233
G1 X108.667 Y36.389 E2.3284
G1 X112.332 Y36.998 E2.4786
G1 X112.455 Y37.022 E2.4836
G1 X116.078 Y37.849 E2.6338
G1 X116.199 Y37.881 E2.6389
G1 X119.766 Y38.923 E2.7890
G1 X119.885 Y38.962 E2.7941
G1 X123.383 Y40.215 E2.9442
G1 X123.500 Y40.261 E2.9493
G1 X126.916 Y41.721 E3.0995
G1 X127.031 Y41.774 E3.1045
G1 X130.354 Y43.436 E3.2547
G1 X130.464 Y43.496 E3.2598
G1 X133.682 Y45.353 E3.4099
G1 X133.789 Y45.419 E3.4150
G1 X136.890 Y47.466 E3.5651
G1 X136.993 Y47.539 E3.5702
G1 X139.965 Y49.767 E3.7204
G1 X140.064 Y49.846 E3.7255
G1 X142.898 Y52.248 E3.8756
G1 X142.991 Y52.332 E3.8807
G1 X145.677 Y54.900 E4.0308
G1 X145.765 Y54.989 E4.0359
G1 X148.292 Y57.713 E4.1861
G1 X148.375 Y57.808 E4.1911
G1 X150.735 Y60.678 E4.3413
G1 X150.812 Y60.777 E4.3464
G1 X152.996 Y63.783 E4.4965
G1 X153.066 Y63.887 E4.5016
G1 X155.067 Y67.018 E4.6517
G1 X155.131 Y67.126 E4.6568
G1 X156.941 Y70.371 E4.8070
G1 X156.999 Y70.483 E4.8120
G1 X158.611 Y73.830 E4.9622
G1 X158.662 Y73.945 E4.9673
G1 X160.071 Y77.383 E5.1174
G1 X160.115 Y77.501 E5.1225
G1 X161.316 Y81.017 E5.2726
G1 X161.353 Y81.137 E5.2777
G1 X162.341 Y84.718 E5.4279
G1 X162.371 Y84.840 E5.4329
G1 X163.144 Y88.475 E5.5831
G1 X163.166 Y88.598 E5.5882
G1 X163.720 Y92.272 E5.7383
G1 X163.735 Y92.397 E5.7434
G1 X164.068 Y96.098 E5.8935
G1 X164.075 Y96.223 E5.8986
G1 X164.187 Y99.937 E6.0488
G1 X164.187 Y100.063 E6.0539
G1 X164.075 Y103.777 E6.2040
G1 X164.068 Y103.902 E6.2091
G1 X163.735 Y107.603 E6.3592
G1 X163.720 Y107.728 E6.3643
G1 X163.166 Y111.402 E6.5145
G1 X163.144 Y111.525 E6.5195
G1 X162.371 Y115.159 E6.6697
G1 X162.341 Y115.282 E6.6748
G1 X161.353 Y118.863 E6.8249
G1 X161.316 Y118.983 E6.8300
G1 X160.115 Y122.499 E6.9801
G1 X160.071 Y122.617 E6.9852
G1 X158.662 Y126.055 E7.1354
G1 X158.611 Y126.170 E7.1404
G1 X156.999 Y129.517 E7.2906
G1 X156.941 Y129.629 E7.2957
G1 X155.131 Y132.874 E7.4458
G1 X155.067 Y132.982 E7.4509
G1 X153.066 Y136.113 E7.6010
G1 X152.996 Y136.217 E7.6061
G1 X150.812 Y139.223 E7.7563
G1 X150.735 Y139.322 E7.7614
G1 X148.375 Y142.192 E7.9115
G1 X148.292 Y142.287 E7.9166
G1 X145.765 Y145.011 E8.0667
G1 X145.677 Y145.100 E8.0718
G1 X142.991 Y147.668 E8.2220
G1 X142.898 Y147.752 E8.2270
G1 X140.064 Y150.154 E8.3772
G1 X139.965 Y150.233 E8.3823
G1 X136.993 Y152.461 E8.5324
G1 X136.890 Y152.534 E8.5375
G1 X133.789 Y154.581 E8.6876
G1 X133.682 Y154.647 E8.6927
G1 X130.464 Y156.504 E8.8429
G1 X130.354 Y156.564 E8.8479
G1 X127.031 Y158.226 E8.9981
G1 X126.916 Y158.279 E9.0032
G1 X123.500 Y159.739 E9.1533
G1 X123.383 Y159.785 E9.1584
G1 X119.885 Y161.038 E9.3085
G1 X119.766 Y161.077 E9.3136
G1 X116.199 Y162.119 E9.4638
G1 X116.078 Y162.151 E9.4689
G1 X112.455 Y162.978 E9.6190
G1 X112.332 Y163.002 E9.6241
G1 X108.667 Y163.611 E9.7742
G1 X108.542 Y163.627 E9.7793
G1 X104.847 Y164.016 E9.9295
G1 X104.722 Y164.025 E9.9345
G1 X101.010 Y164.192 E10.0847
G1 X100.884 Y164.194 E10.0898
G1 X97.169 Y164.138 E10.2399
G1 X97.043 Y164.133 E10.2450
G1 X93.338 Y163.855 E10.3951
G1 X93.213 Y163.842 E10.4002
G1 X89.531 Y163.343 E10.5504
G1 X89.407 Y163.322 E10.5554
G1 X85.762 Y162.604 E10.7056
G1 X85.639 Y162.576 E10.7107
G1 X82.043 Y161.642 E10.8608
G1 X81.923 Y161.606 E10.8659
G1 X78.389 Y160.458 E11.0160
G1 X78.271 Y160.416 E11.0211
G1 X74.812 Y159.058 E11.1713
G1 X74.697 Y159.009 E11.1763
G1 X71.325 Y157.447 E11.3265
G1 X71.213 Y157.391 E11.3316
G1 X67.941 Y155.630 E11.4817
G1 X67.832 Y155.567 E11.4868
G1 X64.671 Y153.614 E11.6370
G1 X64.567 Y153.545 E11.6420
G1 X61.528 Y151.406 E11.7922
G1 X61.428 Y151.331 E11.7973
