; G-Code generated by Simplify3D(R) Version 4.1.2
; Jun 10, 2021 at 10:40:40 PM
; Settings Summary
;   processName,Process1
;   applyToModels,disco 3(2)
;   profileName,wanhao1 (modified)
;   profileVersion,2021-01-03 22:54:49
;   baseProfile,Default
;   printMaterial,PLA
;   printQuality,Medium
;   printExtruders,
;   extruderName,Primary Extruder
;   extruderToolheadNumber,0
;   extruderDiameter,0.35
;   extruderAutoWidth,0
;   extruderWidth,0.4
;   extrusionMultiplier,0.9
;   extruderUseRetract,1
;   extruderRetractionDistance,1
;   extruderExtraRestartDistance,0
;   extruderRetractionZLift,0
;   extruderRetractionSpeed,1800
;   extruderUseCoasting,0
;   extruderCoastingDistance,0.2
;   extruderUseWipe,0
;   extruderWipeDistance,5
;   primaryExtruder,0
;   layerHeight,0.2
;   topSolidLayers,3
;   bottomSolidLayers,3
;   perimeterOutlines,2
;   printPerimetersInsideOut,1
;   startPointOption,2
;   startPointOriginX,0
;   startPointOriginY,0
;   sequentialIslands,0
;   spiralVaseMode,0
;   firstLayerHeightPercentage,90
;   firstLayerWidthPercentage,100
;   firstLayerUnderspeed,0.5
;   useRaft,0
;   raftExtruder,0
;   raftTopLayers,3
;   raftBaseLayers,2
;   raftOffset,3
;   raftSeparationDistance,0.14
;   raftTopInfill,100
;   aboveRaftSpeedMultiplier,0.3
;   useSkirt,1
;   skirtExtruder,0
;   skirtLayers,1
;   skirtOutlines,2
;   skirtOffset,4
;   usePrimePillar,0
;   primePillarExtruder,999
;   primePillarWidth,12
;   primePillarLocation,7
;   primePillarSpeedMultiplier,1
;   useOozeShield,0
;   oozeShieldExtruder,999
;   oozeShieldOffset,2
;   oozeShieldOutlines,1
;   oozeShieldSidewallShape,1
;   oozeShieldSidewallAngle,30
;   oozeShieldSpeedMultiplier,1
;   infillExtruder,0
;   internalInfillPattern,Rectilinear
;   externalInfillPattern,Rectilinear
;   infillPercentage,70
;   outlineOverlapPercentage,15
;   infillExtrusionWidthPercentage,100
;   minInfillLength,5
;   infillLayerInterval,1
;   internalInfillAngles,45,-45
;   overlapInternalInfillAngles,0
;   externalInfillAngles,45,-45
;   generateSupport,0
;   supportExtruder,0
;   supportInfillPercentage,30
;   supportExtraInflation,0
;   supportBaseLayers,0
;   denseSupportExtruder,0
;   denseSupportLayers,0
;   denseSupportInfillPercentage,70
;   supportLayerInterval,1
;   supportHorizontalPartOffset,0.3
;   supportUpperSeparationLayers,1
;   supportLowerSeparationLayers,1
;   supportType,0
;   supportGridSpacing,4
;   maxOverhangAngle,45
;   supportAngles,0
;   temperatureName,Primary Extruder
;   temperatureNumber,0
;   temperatureSetpointCount,1
;   temperatureSetpointLayers,1
;   temperatureSetpointTemperatures,190
;   temperatureStabilizeAtStartup,1
;   temperatureHeatedBed,0
;   fanLayers,1,2
;   fanSpeeds,0,100
;   blipFanToFullPower,0
;   adjustSpeedForCooling,1
;   minSpeedLayerTime,15
;   minCoolingSpeedSlowdown,20
;   increaseFanForCooling,0
;   minFanLayerTime,45
;   maxCoolingFanSpeed,100
;   increaseFanForBridging,0
;   bridgingFanSpeed,100
;   use5D,1
;   relativeEdistances,0
;   allowEaxisZeroing,1
;   independentExtruderAxes,0
;   includeM10123,0
;   stickySupport,1
;   applyToolheadOffsets,0
;   gcodeXoffset,0
;   gcodeYoffset,0
;   gcodeZoffset,0
;   overrideMachineDefinition,0
;   machineTypeOverride,0
;   strokeXoverride,200
;   strokeYoverride,200
;   strokeZoverride,200
;   originOffsetXoverride,0
;   originOffsetYoverride,0
;   originOffsetZoverride,0
;   homeXdirOverride,-1
;   homeYdirOverride,-1
;   homeZdirOverride,-1
;   flipXoverride,1
;   flipYoverride,-1
;   flipZoverride,1
;   toolheadOffsets,0,0|0,0|0,0|0,0|0,0|0,0
;   overrideFirmwareConfiguration,0
;   firmwareTypeOverride,RepRap (Marlin/Repetier/Sprinter)
;   GPXconfigOverride,r2
;   baudRateOverride,115200
;   overridePrinterModels,0
;   printerModelsOverride
;   startingGcode,G28 ; home all axes
;   layerChangeGcode,
;   retractionGcode,
;   toolChangeGcode,
;   endingGcode,M104 S0 ; turn off extruder,M140 S0 ; turn off bed,M84 ; disable motors
;   exportFileFormat,gcode
;   celebration,0
;   celebrationSong,Random Song
;   postProcessing,
;   defaultSpeed,3600
;   outlineUnderspeed,0.5
;   solidInfillUnderspeed,0.8
;   supportUnderspeed,0.8
;   rapidXYspeed,4800
;   rapidZspeed,1002
;   minBridgingArea,50
;   bridgingExtraInflation,0
;   bridgingExtrusionMultiplier,1
;   bridgingSpeedMultiplier,1
;   useFixedBridgingAngle,0
;   fixedBridgingAngle,0
;   applyBridgingToPerimeters,0
;   filamentDiameters,1.75|1.75|1.75|1.75|1.75|1.75
;   filamentPricesPerKg,46|46|46|46|46|46
;   filamentDensities,1.25|1.25|1.25|1.25|1.25|1.25
;   useMinPrintHeight,0
;   minPrintHeight,0
;   useMaxPrintHeight,0
;   maxPrintHeight,0
;   useDiaphragm,0
;   diaphragmLayerInterval,20
;   robustSlicing,1
;   mergeAllIntoSolid,0
;   onlyRetractWhenCrossingOutline,1
;   retractBetweenLayers,1
;   useRetractionMinTravel,0
;   retractionMinTravel,3
;   retractWhileWiping,0
;   onlyWipeOutlines,1
;   avoidCrossingOutline,0
;   maxMovementDetourFactor,3
;   toolChangeRetractionDistance,12
;   toolChangeExtraRestartDistance,-0.5
;   toolChangeRetractionSpeed,600
;   externalThinWallType,0
;   internalThinWallType,2
;   thinWallAllowedOverlapPercentage,10
;   singleExtrusionMinLength,1
;   singleExtrusionMinPrintingWidthPercentage,50
;   singleExtrusionMaxPrintingWidthPercentage,200
;   singleExtrusionEndpointExtension,0.2
;   horizontalSizeCompensation,0
G90
M82
M106 S0
M104 S190 T0
M109 S190 T0
G28 ; home all axes
; process Process1
; layer 1, Z = 0.180
T0
G92 E0.0000
G1 E-1.0000 F1800
; feature skirt
; tool H0.180 W0.400
G1 Z0.180 F1002
G1 X64.299 Y64.863 F4800
G1 E0.0000 F1800
G92 E0.0000
G1 X64.394 Y64.766 E0.0037 F1800
G1 X66.436 Y62.814 E0.0797
G1 X66.538 Y62.722 E0.0835
G1 X68.720 Y60.873 E0.1605
G1 X68.827 Y60.787 E0.1642
G1 X71.115 Y59.072 E0.2413
G1 X71.228 Y58.993 E0.2450
G1 X73.615 Y57.417 E0.3220
G1 X73.732 Y57.345 E0.3257
G1 X76.209 Y55.915 E0.4028
G1 X76.330 Y55.850 E0.4065
G1 X78.888 Y54.570 E0.4835
G1 X79.013 Y54.512 E0.4872
G1 X81.643 Y53.388 E0.5643
G1 X81.771 Y53.338 E0.5680
G1 X84.463 Y52.373 E0.6450
G1 X84.594 Y52.331 E0.6488
G1 X87.339 Y51.529 E0.7258
G1 X87.472 Y51.494 E0.7295
G1 X90.261 Y50.858 E0.8066
G1 X90.396 Y50.831 E0.8103
G1 X93.217 Y50.363 E0.8873
G1 X93.353 Y50.344 E0.8910
G1 X96.198 Y50.045 E0.9681
G1 X96.335 Y50.035 E0.9718
G1 X99.192 Y49.907 E1.0488
G1 X99.330 Y49.905 E1.0525
G1 X102.189 Y49.947 E1.1296
G1 X102.327 Y49.954 E1.1333
G1 X105.179 Y50.167 E1.2103
G1 X105.316 Y50.182 E1.2141
G1 X108.150 Y50.566 E1.2911
G1 X108.285 Y50.588 E1.2948
G1 X111.091 Y51.141 E1.3719
G1 X111.226 Y51.171 E1.3756
G1 X113.994 Y51.891 E1.4526
G1 X114.126 Y51.930 E1.4563
G1 X116.846 Y52.813 E1.5334
G1 X116.975 Y52.860 E1.5371
G1 X119.637 Y53.905 E1.6141
G1 X119.764 Y53.959 E1.6178
G1 X122.359 Y55.161 E1.6949
G1 X122.482 Y55.222 E1.6986
G1 X125.001 Y56.578 E1.7756
G1 X125.120 Y56.647 E1.7794
G1 X127.553 Y58.150 E1.8564
G1 X127.668 Y58.226 E1.8601
G1 X130.006 Y59.872 E1.9372
G1 X130.116 Y59.955 E1.9409
G1 X132.352 Y61.738 E2.0179
G1 X132.457 Y61.827 E2.0216
G1 X134.583 Y63.740 E2.0987
G1 X134.682 Y63.836 E2.1024
G1 X136.689 Y65.873 E2.1794
G1 X136.783 Y65.974 E2.1831
G1 X138.665 Y68.128 E2.2602
G1 X138.752 Y68.234 E2.2639
G1 X140.501 Y70.496 E2.3409
G1 X140.582 Y70.608 E2.3447
G1 X142.193 Y72.971 E2.4217
G1 X142.268 Y73.087 E2.4254
G1 X143.734 Y75.542 E2.5025
G1 X143.801 Y75.662 E2.5062
G1 X145.119 Y78.200 E2.5832
G1 X145.179 Y78.324 E2.5869
G1 X146.342 Y80.937 E2.6640
G1 X146.394 Y81.065 E2.6677
G1 X147.399 Y83.742 E2.7447
G1 X147.443 Y83.872 E2.7484
G1 X148.286 Y86.605 E2.8255
G1 X148.323 Y86.738 E2.8292
G1 X149.001 Y89.516 E2.9062
G1 X149.030 Y89.651 E2.9100
G1 X149.540 Y92.465 E2.9870
G1 X149.561 Y92.601 E2.9907
G1 X149.902 Y95.441 E3.0678
G1 X149.915 Y95.578 E3.0715
G1 X150.086 Y98.432 E3.1485
G1 X150.090 Y98.570 E3.1522
G1 X150.090 Y101.430 E3.2293
G1 X150.086 Y101.568 E3.2330
G1 X149.915 Y104.422 E3.3100
G1 X149.902 Y104.559 E3.3137
G1 X149.561 Y107.399 E3.3908
G1 X149.540 Y107.535 E3.3945
G1 X149.030 Y110.349 E3.4715
G1 X149.001 Y110.484 E3.4753
G1 X148.323 Y113.262 E3.5523
G1 X148.286 Y113.395 E3.5560
G1 X147.443 Y116.128 E3.6331
G1 X147.399 Y116.258 E3.6368
G1 X146.394 Y118.935 E3.7138
G1 X146.342 Y119.063 E3.7175
G1 X145.179 Y121.676 E3.7946
G1 X145.119 Y121.800 E3.7983
G1 X143.801 Y124.338 E3.8753
G1 X143.734 Y124.458 E3.8790
G1 X142.268 Y126.913 E3.9561
G1 X142.193 Y127.029 E3.9598
G1 X140.582 Y129.392 E4.0368
G1 X140.501 Y129.504 E4.0406
G1 X138.752 Y131.766 E4.1176
G1 X138.665 Y131.872 E4.1213
G1 X136.783 Y134.026 E4.1984
G1 X136.689 Y134.127 E4.2021
G1 X134.682 Y136.164 E4.2791
G1 X134.583 Y136.260 E4.2828
G1 X132.457 Y138.173 E4.3599
G1 X132.352 Y138.262 E4.3636
G1 X130.116 Y140.045 E4.4406
G1 X130.006 Y140.128 E4.4443
G1 X127.668 Y141.774 E4.5214
G1 X127.553 Y141.850 E4.5251
G1 X125.120 Y143.353 E4.6021
G1 X125.001 Y143.422 E4.6059
G1 X122.482 Y144.778 E4.6829
G1 X122.359 Y144.839 E4.6866
G1 X119.764 Y146.041 E4.7637
G1 X119.637 Y146.095 E4.7674
G1 X116.975 Y147.140 E4.8444
G1 X116.846 Y147.187 E4.8481
G1 X114.126 Y148.070 E4.9252
G1 X113.994 Y148.109 E4.9289
G1 X111.226 Y148.829 E5.0059
G1 X111.091 Y148.859 E5.0096
G1 X108.285 Y149.412 E5.0867
G1 X108.150 Y149.434 E5.0904
G1 X105.316 Y149.818 E5.1674
G1 X105.179 Y149.833 E5.1712
G1 X102.327 Y150.046 E5.2482
G1 X102.189 Y150.053 E5.2519
G1 X99.330 Y150.095 E5.3290
G1 X99.192 Y150.093 E5.3327
G1 X96.335 Y149.965 E5.4097
G1 X96.198 Y149.955 E5.4134
G1 X93.353 Y149.656 E5.4905
G1 X93.217 Y149.637 E5.4942
G1 X90.396 Y149.169 E5.5712
G1 X90.261 Y149.142 E5.5749
G1 X87.472 Y148.506 E5.6520
G1 X87.339 Y148.471 E5.6557
G1 X84.594 Y147.669 E5.7328
G1 X84.463 Y147.627 E5.7365
G1 X81.771 Y146.662 E5.8135
G1 X81.643 Y146.612 E5.8172
G1 X79.013 Y145.488 E5.8943
G1 X78.888 Y145.430 E5.8980
G1 X76.330 Y144.150 E5.9750
G1 X76.209 Y144.085 E5.9787
G1 X73.732 Y142.655 E6.0558
G1 X73.615 Y142.583 E6.0595
G1 X71.228 Y141.007 E6.1365
G1 X71.115 Y140.928 E6.1402
G1 X68.827 Y139.213 E6.2173
G1 X68.720 Y139.127 E6.2210
G1 X66.538 Y137.278 E6.2981
G1 X66.436 Y137.185 E6.3018
G1 X64.368 Y135.209 E6.3788
G1 X64.272 Y135.111 E6.3825
G1 X62.327 Y133.015 E6.4596
G1 X62.236 Y132.911 E6.4633
G1 X60.420 Y130.702 E6.5403
G1 X60.335 Y130.593 E6.5440
G1 X58.654 Y128.279 E6.6211
G1 X58.577 Y128.165 E6.6248
G1 X57.037 Y125.755 E6.7018
G1 X56.967 Y125.637 E6.7055
G1 X55.574 Y123.139 E6.7826
G1 X55.510 Y123.017 E6.7863
G1 X54.270 Y120.440 E6.8634
G1 X54.214 Y120.315 E6.8671
G1 X53.129 Y117.668 E6.9441
G1 X53.081 Y117.539 E6.9478
G1 X52.156 Y114.833 E7.0249
G1 X52.116 Y114.701 E7.0286
G1 X51.355 Y111.945 E7.1056
G1 X51.322 Y111.811 E7.1093
G1 X50.728 Y109.013 E7.1864
G1 X50.703 Y108.878 E7.1901
G1 X50.277 Y106.050 E7.2671
G1 X50.260 Y105.913 E7.2708
G1 X50.004 Y103.065 E7.3479
G1 X49.996 Y102.927 E7.3516
G1 X49.910 Y100.069 E7.4287
G1 X49.910 Y99.931 E7.4324
G1 X49.996 Y97.072 E7.5094
G1 X50.004 Y96.935 E7.5131
G1 X50.260 Y94.087 E7.5902
G1 X50.277 Y93.950 E7.5939
G1 X50.703 Y91.122 E7.6709
G1 X50.728 Y90.987 E7.6746
G1 X51.322 Y88.189 E7.7517
G1 X51.355 Y88.055 E7.7554
G1 X52.116 Y85.299 E7.8324
G1 X52.156 Y85.167 E7.8361
G1 X53.081 Y82.461 E7.9132
G1 X53.129 Y82.332 E7.9169
G1 X54.214 Y79.685 E7.9940
G1 X54.270 Y79.560 E7.9977
G1 X55.510 Y76.983 E8.0747
G1 X55.574 Y76.861 E8.0784
G1 X56.967 Y74.363 E8.1555
G1 X57.037 Y74.245 E8.1592
G1 X58.577 Y71.835 E8.2362
G1 X58.654 Y71.721 E8.2399
G1 X60.335 Y69.407 E8.3170
G1 X60.420 Y69.298 E8.3207
G1 X62.237 Y67.088 E8.3978
G1 X62.328 Y66.983 E8.4015
G1 X64.299 Y64.863 E8.4795
G92 E0.0000
G1 E-1.0000 F1800
G1 X64.588 Y65.139 F4800
G1 E0.0000 F1800
G92 E0.0000
G1 X64.675 Y65.051 E0.0033 F1800
G1 X66.708 Y63.108 E0.0791
G1 X66.801 Y63.024 E0.0825
G1 X68.974 Y61.182 E0.1592
G1 X69.072 Y61.104 E0.1626
G1 X71.351 Y59.396 E0.2393
G1 X71.453 Y59.323 E0.2427
G1 X73.830 Y57.754 E0.3194
G1 X73.937 Y57.688 E0.3228
G1 X76.404 Y56.264 E0.3996
G1 X76.514 Y56.205 E0.4029
G1 X79.061 Y54.931 E0.4797
G1 X79.175 Y54.878 E0.4831
G1 X81.794 Y53.759 E0.5598
G1 X81.911 Y53.713 E0.5632
G1 X84.592 Y52.752 E0.6399
G1 X84.712 Y52.713 E0.6433
G1 X87.446 Y51.914 E0.7200
G1 X87.567 Y51.883 E0.7234
G1 X90.344 Y51.249 E0.8001
G1 X90.467 Y51.225 E0.8035
G1 X93.277 Y50.758 E0.8802
G1 X93.401 Y50.741 E0.8836
G1 X96.233 Y50.444 E0.9603
G1 X96.359 Y50.434 E0.9637
G1 X99.204 Y50.306 E1.0405
G1 X99.330 Y50.305 E1.0438
G1 X102.177 Y50.347 E1.1206
G1 X102.303 Y50.353 E1.1240
G1 X105.143 Y50.566 E1.2007
G1 X105.268 Y50.579 E1.2041
G1 X108.090 Y50.961 E1.2808
G1 X108.214 Y50.982 E1.2842
G1 X111.008 Y51.532 E1.3609
G1 X111.131 Y51.560 E1.3643
G1 X113.887 Y52.277 E1.4410
G1 X114.008 Y52.312 E1.4444
G1 X116.716 Y53.192 E1.5211
G1 X116.835 Y53.234 E1.5245
G1 X119.486 Y54.275 E1.6012
G1 X119.601 Y54.324 E1.6046
G1 X122.185 Y55.521 E1.6814
G1 X122.298 Y55.578 E1.6847
G1 X124.806 Y56.927 E1.7615
G1 X124.915 Y56.990 E1.7648
G1 X127.337 Y58.487 E1.8416
G1 X127.442 Y58.556 E1.8450
G1 X129.771 Y60.196 E1.9217
G1 X129.872 Y60.271 E1.9251
G1 X132.098 Y62.047 E2.0018
G1 X132.194 Y62.128 E2.0052
G1 X134.311 Y64.034 E2.0819
G1 X134.401 Y64.121 E2.0853
G1 X136.400 Y66.149 E2.1620
G1 X136.486 Y66.241 E2.1654
G1 X138.359 Y68.386 E2.2421
G1 X138.439 Y68.483 E2.2455
G1 X140.181 Y70.736 E2.3223
G1 X140.255 Y70.838 E2.3256
G1 X141.860 Y73.191 E2.4024
G1 X141.927 Y73.297 E2.4057
G1 X143.388 Y75.742 E2.4825
G1 X143.449 Y75.852 E2.4859
G1 X144.761 Y78.379 E2.5626
G1 X144.816 Y78.493 E2.5660
G1 X145.974 Y81.094 E2.6427
G1 X146.022 Y81.211 E2.6461
G1 X147.022 Y83.877 E2.7228
G1 X147.063 Y83.996 E2.7262
G1 X147.902 Y86.717 E2.8029
G1 X147.936 Y86.839 E2.8063
G1 X148.611 Y89.605 E2.8830
G1 X148.637 Y89.728 E2.8864
G1 X149.146 Y92.530 E2.9631
G1 X149.164 Y92.655 E2.9665
G1 X149.504 Y95.482 E3.0433
G1 X149.516 Y95.608 E3.0466
G1 X149.686 Y98.450 E3.1234
G1 X149.690 Y98.576 E3.1268
G1 X149.690 Y101.424 E3.2035
G1 X149.686 Y101.550 E3.2069
G1 X149.516 Y104.392 E3.2836
G1 X149.504 Y104.518 E3.2870
G1 X149.164 Y107.345 E3.3637
G1 X149.146 Y107.470 E3.3671
G1 X148.637 Y110.272 E3.4438
G1 X148.611 Y110.395 E3.4472
G1 X147.936 Y113.161 E3.5239
G1 X147.902 Y113.283 E3.5273
G1 X147.063 Y116.004 E3.6040
G1 X147.022 Y116.123 E3.6074
G1 X146.022 Y118.789 E3.6842
G1 X145.974 Y118.906 E3.6875
G1 X144.816 Y121.507 E3.7643
G1 X144.761 Y121.621 E3.7677
G1 X143.449 Y124.148 E3.8444
G1 X143.388 Y124.258 E3.8478
G1 X141.927 Y126.703 E3.9245
G1 X141.860 Y126.809 E3.9279
G1 X140.255 Y129.162 E4.0046
G1 X140.181 Y129.264 E4.0080
G1 X138.439 Y131.517 E4.0847
G1 X138.359 Y131.614 E4.0881
G1 X136.486 Y133.759 E4.1648
G1 X136.400 Y133.851 E4.1682
G1 X134.401 Y135.879 E4.2449
G1 X134.311 Y135.966 E4.2483
G1 X132.194 Y137.872 E4.3251
G1 X132.098 Y137.953 E4.3284
G1 X129.872 Y139.729 E4.4052
G1 X129.771 Y139.804 E4.4086
G1 X127.442 Y141.444 E4.4853
G1 X127.337 Y141.513 E4.4887
G1 X124.915 Y143.010 E4.5654
G1 X124.806 Y143.073 E4.5688
G1 X122.298 Y144.422 E4.6455
G1 X122.185 Y144.479 E4.6489
G1 X119.601 Y145.676 E4.7256
G1 X119.486 Y145.725 E4.7290
G1 X116.835 Y146.766 E4.8057
G1 X116.716 Y146.808 E4.8091
G1 X114.008 Y147.688 E4.8858
G1 X113.887 Y147.723 E4.8892
G1 X111.131 Y148.440 E4.9660
G1 X111.008 Y148.468 E4.9693
G1 X108.214 Y149.018 E5.0461
G1 X108.090 Y149.039 E5.0495
G1 X105.268 Y149.421 E5.1262
G1 X105.143 Y149.434 E5.1296
G1 X102.303 Y149.647 E5.2063
G1 X102.177 Y149.653 E5.2097
G1 X99.330 Y149.695 E5.2864
G1 X99.204 Y149.693 E5.2898
G1 X96.359 Y149.566 E5.3665
G1 X96.233 Y149.556 E5.3699
G1 X93.401 Y149.259 E5.4466
G1 X93.276 Y149.242 E5.4500
G1 X90.467 Y148.775 E5.5267
G1 X90.344 Y148.751 E5.5301
G1 X87.567 Y148.117 E5.6069
G1 X87.445 Y148.086 E5.6102
G1 X84.712 Y147.287 E5.6870
G1 X84.592 Y147.248 E5.6904
G1 X81.911 Y146.287 E5.7671
G1 X81.794 Y146.241 E5.7705
G1 X79.175 Y145.122 E5.8472
G1 X79.061 Y145.069 E5.8506
G1 X76.514 Y143.795 E5.9273
G1 X76.404 Y143.736 E5.9307
G1 X73.937 Y142.312 E6.0074
G1 X73.830 Y142.246 E6.0108
G1 X71.453 Y140.677 E6.0875
G1 X71.351 Y140.604 E6.0909
G1 X69.072 Y138.896 E6.1676
G1 X68.974 Y138.818 E6.1710
G1 X66.801 Y136.976 E6.2478
