; G-Code generated by Simplify3D(R) Version 4.1.2
; Jun 11, 2021 at 8:27:07 PM
; Settings Summary
;   processName,Process1
;   applyToModels,espaciador 2,espaciador 2(2),espaciador 2(3),espaciador 2(4)
;   profileName,wanhao1 (modified)
;   profileVersion,2021-01-03 22:54:49
;   baseProfile,Default
;   printMaterial,PLA
;   printQuality,Medium
;   printExtruders,
;   extruderName,Primary Extruder
;   extruderToolheadNumber,0
;   extruderDiameter,0.35
;   extruderAutoWidth,0
;   extruderWidth,0.4
;   extrusionMultiplier,0.9
;   extruderUseRetract,1
;   extruderRetractionDistance,1
;   extruderExtraRestartDistance,0
;   extruderRetractionZLift,0
;   extruderRetractionSpeed,1800
;   extruderUseCoasting,0
;   extruderCoastingDistance,0.2
;   extruderUseWipe,0
;   extruderWipeDistance,5
;   primaryExtruder,0
;   layerHeight,0.3
;   topSolidLayers,4
;   bottomSolidLayers,3
;   perimeterOutlines,2
;   printPerimetersInsideOut,1
;   startPointOption,2
;   startPointOriginX,0
;   startPointOriginY,0
;   sequentialIslands,0
;   spiralVaseMode,0
;   firstLayerHeightPercentage,90
;   firstLayerWidthPercentage,100
;   firstLayerUnderspeed,0.5
;   useRaft,0
;   raftExtruder,0
;   raftTopLayers,3
;   raftBaseLayers,2
;   raftOffset,3
;   raftSeparationDistance,0.14
;   raftTopInfill,100
;   aboveRaftSpeedMultiplier,0.3
;   useSkirt,1
;   skirtExtruder,0
;   skirtLayers,1
;   skirtOutlines,2
;   skirtOffset,4
;   usePrimePillar,0
;   primePillarExtruder,999
;   primePillarWidth,12
;   primePillarLocation,7
;   primePillarSpeedMultiplier,1
;   useOozeShield,0
;   oozeShieldExtruder,999
;   oozeShieldOffset,2
;   oozeShieldOutlines,1
;   oozeShieldSidewallShape,1
;   oozeShieldSidewallAngle,30
;   oozeShieldSpeedMultiplier,1
;   infillExtruder,0
;   internalInfillPattern,Rectilinear
;   externalInfillPattern,Rectilinear
;   infillPercentage,20
;   outlineOverlapPercentage,15
;   infillExtrusionWidthPercentage,100
;   minInfillLength,5
;   infillLayerInterval,1
;   internalInfillAngles,45,-45
;   overlapInternalInfillAngles,0
;   externalInfillAngles,45,-45
;   generateSupport,1
;   supportExtruder,0
;   supportInfillPercentage,15
;   supportExtraInflation,0
;   supportBaseLayers,0
;   denseSupportExtruder,0
;   denseSupportLayers,0
;   denseSupportInfillPercentage,70
;   supportLayerInterval,1
;   supportHorizontalPartOffset,0.3
;   supportUpperSeparationLayers,1
;   supportLowerSeparationLayers,1
;   supportType,0
;   supportGridSpacing,4
;   maxOverhangAngle,45
;   supportAngles,0
;   temperatureName,Primary Extruder
;   temperatureNumber,0
;   temperatureSetpointCount,1
;   temperatureSetpointLayers,1
;   temperatureSetpointTemperatures,210
;   temperatureStabilizeAtStartup,1
;   temperatureHeatedBed,0
;   fanLayers,1,2
;   fanSpeeds,0,100
;   blipFanToFullPower,0
;   adjustSpeedForCooling,1
;   minSpeedLayerTime,15
;   minCoolingSpeedSlowdown,20
;   increaseFanForCooling,0
;   minFanLayerTime,45
;   maxCoolingFanSpeed,100
;   increaseFanForBridging,0
;   bridgingFanSpeed,100
;   use5D,1
;   relativeEdistances,0
;   allowEaxisZeroing,1
;   independentExtruderAxes,0
;   includeM10123,0
;   stickySupport,1
;   applyToolheadOffsets,0
;   gcodeXoffset,0
;   gcodeYoffset,0
;   gcodeZoffset,0
;   overrideMachineDefinition,0
;   machineTypeOverride,0
;   strokeXoverride,200
;   strokeYoverride,200
;   strokeZoverride,200
;   originOffsetXoverride,0
;   originOffsetYoverride,0
;   originOffsetZoverride,0
;   homeXdirOverride,-1
;   homeYdirOverride,-1
;   homeZdirOverride,-1
;   flipXoverride,1
;   flipYoverride,-1
;   flipZoverride,1
;   toolheadOffsets,0,0|0,0|0,0|0,0|0,0|0,0
;   overrideFirmwareConfiguration,0
;   firmwareTypeOverride,RepRap (Marlin/Repetier/Sprinter)
;   GPXconfigOverride,r2
;   baudRateOverride,115200
;   overridePrinterModels,0
;   printerModelsOverride
;   startingGcode,G28 ; home all axes
;   layerChangeGcode,
;   retractionGcode,
;   toolChangeGcode,
;   endingGcode,M104 S0 ; turn off extruder,M140 S0 ; turn off bed,G0 X0 Y0; GO HOME,M84 ; disable motors
;   exportFileFormat,gcode
;   celebration,0
;   celebrationSong,Random Song
;   postProcessing,
;   defaultSpeed,4800
;   outlineUnderspeed,0.5
;   solidInfillUnderspeed,0.8
;   supportUnderspeed,0.8
;   rapidXYspeed,4800
;   rapidZspeed,1002
;   minBridgingArea,50
;   bridgingExtraInflation,0
;   bridgingExtrusionMultiplier,1
;   bridgingSpeedMultiplier,1
;   useFixedBridgingAngle,0
;   fixedBridgingAngle,0
;   applyBridgingToPerimeters,0
;   filamentDiameters,1.75|1.75|1.75|1.75|1.75|1.75
;   filamentPricesPerKg,46|46|46|46|46|46
;   filamentDensities,1.25|1.25|1.25|1.25|1.25|1.25
;   useMinPrintHeight,0
;   minPrintHeight,0
;   useMaxPrintHeight,0
;   maxPrintHeight,0
;   useDiaphragm,0
;   diaphragmLayerInterval,20
;   robustSlicing,1
;   mergeAllIntoSolid,0
;   onlyRetractWhenCrossingOutline,1
;   retractBetweenLayers,1
;   useRetractionMinTravel,0
;   retractionMinTravel,3
;   retractWhileWiping,0
;   onlyWipeOutlines,1
;   avoidCrossingOutline,0
;   maxMovementDetourFactor,3
;   toolChangeRetractionDistance,12
;   toolChangeExtraRestartDistance,-0.5
;   toolChangeRetractionSpeed,600
;   externalThinWallType,0
;   internalThinWallType,2
;   thinWallAllowedOverlapPercentage,10
;   singleExtrusionMinLength,1
;   singleExtrusionMinPrintingWidthPercentage,50
;   singleExtrusionMaxPrintingWidthPercentage,200
;   singleExtrusionEndpointExtension,0.2
;   horizontalSizeCompensation,0
G90
M82
M106 S0
M104 S210 T0
M109 S210 T0
G28 ; home all axes
; process Process1
; layer 1, Z = 0.270
T0
G92 E0.0000
G1 E-1.0000 F1800
; feature skirt
; tool H0.270 W0.400
G1 Z0.270 F1002
G1 X83.108 Y83.198 F4800
G1 E0.0000 F1800
G92 E0.0000
G1 X83.345 Y82.965 E0.0134 F2400
G1 X84.282 Y82.170 E0.0631
G1 X84.480 Y82.019 E0.0732
G1 X85.075 Y81.616 E0.1022
G1 X85.288 Y81.487 E0.1123
G1 X86.374 Y80.912 E0.1619
G1 X86.678 Y80.777 E0.1754
G1 X87.835 Y80.364 E0.2250
G1 X88.074 Y80.293 E0.2351
G1 X88.773 Y80.126 E0.2641
G1 X89.018 Y80.081 E0.2742
G1 X90.196 Y79.932 E0.3222
G1 X90.445 Y79.914 E0.3322
G1 X91.163 Y79.901 E0.3613
G1 X91.412 Y79.910 E0.3714
G1 X92.636 Y80.020 E0.4210
G1 X92.964 Y80.074 E0.4344
G1 X94.200 Y80.370 E0.4858
G1 X94.516 Y80.470 E0.4992
G1 X95.697 Y80.940 E0.5506
G1 X95.996 Y81.085 E0.5640
G1 X97.060 Y81.700 E0.6136
G1 X97.269 Y81.836 E0.6237
G1 X97.815 Y82.236 E0.6511
G1 X97.945 Y82.339 E0.6578
G1 X98.461 Y82.777 E0.6851
G1 X98.642 Y82.948 E0.6952
G1 X99.487 Y83.840 E0.7449
G1 X99.698 Y84.098 E0.7583
G1 X100.000 Y84.526 E0.7795
G1 X100.536 Y83.821 E0.8153
G1 X100.697 Y83.631 E0.8254
G1 X101.163 Y83.140 E0.8527
G1 X101.282 Y83.023 E0.8594
G1 X101.781 Y82.567 E0.8868
G1 X101.974 Y82.409 E0.8969
G1 X102.966 Y81.683 E0.9465
G1 X103.247 Y81.507 E0.9600
G1 X104.370 Y80.912 E1.0113
G1 X104.674 Y80.777 E1.0247
G1 X105.831 Y80.364 E1.0744
G1 X106.070 Y80.293 E1.0845
G1 X106.729 Y80.136 E1.1118
G1 X106.891 Y80.103 E1.1185
G1 X107.559 Y79.993 E1.1459
G1 X107.807 Y79.966 E1.1560
G1 X109.034 Y79.900 E1.2056
G1 X109.367 Y79.906 E1.2191
G1 X110.632 Y80.020 E1.2704
G1 X110.960 Y80.074 E1.2838
G1 X112.195 Y80.370 E1.3352
G1 X112.512 Y80.470 E1.3486
G1 X113.654 Y80.925 E1.3983
G1 X113.880 Y81.030 E1.4083
G1 X114.515 Y81.366 E1.4374
G1 X114.728 Y81.495 E1.4474
G1 X115.711 Y82.161 E1.4954
G1 X115.909 Y82.312 E1.5055
G1 X116.457 Y82.777 E1.5345
G1 X116.638 Y82.948 E1.5446
G1 X117.483 Y83.840 E1.5943
G1 X117.694 Y84.098 E1.6077
G1 X118.402 Y85.102 E1.6573
G1 X118.534 Y85.313 E1.6674
G1 X118.862 Y85.906 E1.6948
G1 X118.937 Y86.054 E1.7015
G1 X119.221 Y86.668 E1.7288
G1 X119.313 Y86.900 E1.7389
G1 X119.706 Y88.064 E1.7886
G1 X119.789 Y88.386 E1.8020
G1 X120.009 Y89.595 E1.8517
G1 X120.041 Y89.842 E1.8617
G1 X120.093 Y90.559 E1.8908
G1 X120.097 Y90.808 E1.9008
G1 X120.053 Y92.036 E1.9505
G1 X120.017 Y92.366 E1.9639
G1 X119.789 Y93.616 E2.0153
G1 X119.706 Y93.938 E2.0287
G1 X119.313 Y95.103 E2.0784
G1 X119.221 Y95.334 E2.0884
G1 X118.937 Y95.948 E2.1158
G1 X118.862 Y96.096 E2.1225
G1 X118.534 Y96.689 E2.1499
G1 X118.402 Y96.900 E2.1599
G1 X117.694 Y97.905 E2.2096
G1 X117.483 Y98.162 E2.2230
G1 X116.638 Y99.054 E2.2727
G1 X116.457 Y99.225 E2.2828
G1 X115.909 Y99.690 E2.3118
G1 X115.711 Y99.841 E2.3219
G1 X115.485 Y99.995 E2.3329
G1 X115.811 Y100.234 E2.3493
G1 X115.941 Y100.336 E2.3560
G1 X116.457 Y100.775 E2.3833
G1 X116.638 Y100.946 E2.3934
G1 X117.483 Y101.838 E2.4431
G1 X117.694 Y102.095 E2.4565
G1 X118.425 Y103.134 E2.5078
G1 X118.597 Y103.419 E2.5213
G1 X119.153 Y104.515 E2.5709
G1 X119.253 Y104.743 E2.5810
G1 X119.507 Y105.415 E2.6100
G1 X119.582 Y105.652 E2.6201
G1 X119.890 Y106.842 E2.6698
G1 X119.949 Y107.169 E2.6832
G1 X120.082 Y108.391 E2.7328
G1 X120.096 Y108.640 E2.7429
G1 X120.096 Y109.358 E2.7720
G1 X120.082 Y109.607 E2.7820
G1 X119.949 Y110.829 E2.8317
G1 X119.890 Y111.156 E2.8451
G1 X119.582 Y112.345 E2.8948
G1 X119.507 Y112.583 E2.9048
G1 X119.253 Y113.255 E2.9339
G1 X119.153 Y113.483 E2.9440
G1 X118.616 Y114.542 E2.9919
G1 X118.491 Y114.758 E3.0020
G1 X118.121 Y115.325 E3.0294
G1 X118.026 Y115.461 E3.0361
G1 X117.616 Y116.000 E3.0634
G1 X117.454 Y116.190 E3.0735
G1 X116.609 Y117.082 E3.1232
G1 X116.364 Y117.306 E3.1366
G1 X115.399 Y118.067 E3.1863
G1 X115.196 Y118.211 E3.1963
G1 X114.622 Y118.570 E3.2237
G1 X114.478 Y118.653 E3.2304
G1 X113.880 Y118.970 E3.2578
G1 X113.654 Y119.075 E3.2678
G1 X112.512 Y119.530 E3.3175
G1 X112.195 Y119.630 E3.3309
G1 X111.000 Y119.916 E3.3806
G1 X110.755 Y119.961 E3.3906
G1 X110.042 Y120.051 E3.4197
G1 X109.794 Y120.069 E3.4298
G1 X108.607 Y120.091 E3.4777
G1 X108.357 Y120.082 E3.4878
G1 X107.642 Y120.017 E3.5168
G1 X107.395 Y119.981 E3.5269
G1 X106.191 Y119.739 E3.5766
G1 X105.870 Y119.650 E3.5900
G1 X104.674 Y119.223 E3.6413
G1 X104.370 Y119.088 E3.6548
G1 X103.284 Y118.513 E3.7044
G1 X103.071 Y118.384 E3.7145
G1 X102.476 Y117.981 E3.7435
G1 X102.277 Y117.830 E3.7536
G1 X101.373 Y117.062 E3.8016
G1 X101.192 Y116.890 E3.8117
G1 X100.726 Y116.399 E3.8390
G1 X100.616 Y116.274 E3.8457
G1 X100.187 Y115.750 E3.8731
G1 X100.040 Y115.549 E3.8832
G1 X99.995 Y115.480 E3.8865
G1 X99.698 Y115.902 E3.9073
G1 X99.487 Y116.160 E3.9208
G1 X98.642 Y117.052 E3.9704
G1 X98.461 Y117.223 E3.9805
G1 X97.914 Y117.688 E4.0095
G1 X97.715 Y117.839 E4.0196
G1 X96.733 Y118.505 E4.0676
G1 X96.519 Y118.634 E4.0777
G1 X95.884 Y118.970 E4.1067
G1 X95.658 Y119.075 E4.1168
G1 X94.516 Y119.530 E4.1664
G1 X94.200 Y119.630 E4.1799
G1 X93.004 Y119.916 E4.2295
G1 X92.759 Y119.961 E4.2396
G1 X92.046 Y120.051 E4.2686
G1 X91.798 Y120.069 E4.2787
G1 X90.611 Y120.091 E4.3267
G1 X90.362 Y120.082 E4.3368
G1 X89.646 Y120.017 E4.3658
G1 X89.400 Y119.981 E4.3759
G1 X88.195 Y119.739 E4.4255
G1 X87.875 Y119.650 E4.4390
G1 X86.678 Y119.223 E4.4903
G1 X86.374 Y119.088 E4.5037
G1 X85.288 Y118.513 E4.5534
G1 X85.075 Y118.384 E4.5635
G1 X84.514 Y118.004 E4.5908
G1 X84.380 Y117.906 E4.5975
G1 X83.849 Y117.487 E4.6249
G1 X83.662 Y117.322 E4.6350
G1 X82.815 Y116.490 E4.6829
G1 X82.647 Y116.306 E4.6930
G1 X82.192 Y115.750 E4.7220
G1 X82.044 Y115.549 E4.7321
G1 X81.373 Y114.520 E4.7818
G1 X81.212 Y114.229 E4.7952
G1 X80.679 Y113.076 E4.8465
G1 X80.561 Y112.765 E4.8600
G1 X80.211 Y111.587 E4.9096
G1 X80.153 Y111.345 E4.9197
G1 X80.024 Y110.638 E4.9487
G1 X79.993 Y110.391 E4.9588
G1 X79.904 Y109.165 E5.0085
G1 X79.904 Y108.833 E5.0219
G1 X79.993 Y107.607 E5.0716
G1 X80.024 Y107.360 E5.0816
G1 X80.153 Y106.653 E5.1107
G1 X80.211 Y106.411 E5.1207
G1 X80.561 Y105.233 E5.1704
G1 X80.679 Y104.922 E5.1838
G1 X81.195 Y103.806 E5.2335
G1 X81.312 Y103.586 E5.2436
G1 X81.661 Y103.006 E5.2709
G1 X81.751 Y102.867 E5.2776
G1 X82.141 Y102.314 E5.3050
G1 X82.296 Y102.118 E5.3151
G1 X83.108 Y101.196 E5.3647
G1 X83.345 Y100.963 E5.3781
G1 X84.282 Y100.168 E5.4278
G1 X84.480 Y100.017 E5.4379
G1 X84.505 Y100.000 E5.4391
G1 X84.480 Y99.983 E5.4403
G1 X84.282 Y99.832 E5.4504
G1 X83.377 Y99.064 E5.4983
G1 X83.196 Y98.892 E5.5084
G1 X82.730 Y98.401 E5.5358
G1 X82.620 Y98.276 E5.5425
G1 X82.192 Y97.752 E5.5698
G1 X82.044 Y97.551 E5.5799
G1 X81.373 Y96.522 E5.6296
G1 X81.212 Y96.231 E5.6430
G1 X80.696 Y95.116 E5.6927
G1 X80.604 Y94.884 E5.7027
G1 X80.375 Y94.203 E5.7318
G1 X80.308 Y93.963 E5.7418
G1 X80.044 Y92.763 E5.7915
G1 X79.996 Y92.434 E5.8049
G1 X79.904 Y91.167 E5.8563
G1 X79.904 Y90.835 E5.8697
G1 X79.996 Y89.568 E5.9210
G1 X80.044 Y89.239 E5.9345
G1 X80.308 Y88.039 E5.9841
G1 X80.375 Y87.799 E5.9942
G1 X80.604 Y87.118 E6.0232
G1 X80.696 Y86.886 E6.0333
G1 X81.195 Y85.809 E6.0813
G1 X81.312 Y85.588 E6.0914
G1 X81.661 Y85.008 E6.1187
G1 X81.751 Y84.869 E6.1254
G1 X82.141 Y84.316 E6.1528
G1 X82.296 Y84.120 E6.1629
G1 X83.108 Y83.198 E6.2125
G92 E0.0000
G1 E-1.0000 F1800
G1 X83.399 Y83.473 F4800
G1 E0.0000 F1800
G92 E0.0000
G1 X83.615 Y83.261 E0.0123 F2400
G1 X84.532 Y82.482 E0.0609
G1 X84.714 Y82.344 E0.0701
G1 X85.290 Y81.953 E0.0983
G1 X85.485 Y81.835 E0.1075
G1 X86.549 Y81.272 E0.1561
G1 X86.826 Y81.149 E0.1684
G1 X87.960 Y80.744 E0.2170
G1 X88.178 Y80.680 E0.2262
G1 X88.856 Y80.518 E0.2543
G1 X89.079 Y80.477 E0.2635
G1 X90.236 Y80.330 E0.3106
G1 X90.463 Y80.313 E0.3198
G1 X91.160 Y80.301 E0.3480
G1 X91.387 Y80.309 E0.3572
G1 X92.586 Y80.417 E0.4058
G1 X92.885 Y80.467 E0.4181
G1 X94.093 Y80.755 E0.4683
G1 X94.382 Y80.847 E0.4805
G1 X95.535 Y81.307 E0.5307
G1 X95.808 Y81.439 E0.5430
G1 X96.850 Y82.041 E0.5916
G1 X97.041 Y82.165 E0.6008
G1 X97.573 Y82.554 E0.6274
G1 X97.692 Y82.648 E0.6336
G1 X98.194 Y83.075 E0.6602
G1 X98.359 Y83.231 E0.6694
G1 X99.187 Y84.105 E0.7180
G1 X99.379 Y84.340 E0.7303
G1 X99.998 Y85.217 E0.7737
G1 X100.015 Y85.188 E0.7750
G1 X100.143 Y85.000 E0.7842
G1 X100.848 Y84.072 E0.8313
G1 X100.995 Y83.898 E0.8405
G1 X101.448 Y83.420 E0.8671
G1 X101.557 Y83.314 E0.8733
G1 X102.043 Y82.869 E0.8999
G1 X102.219 Y82.725 E0.9091
G1 X103.190 Y82.014 E0.9577
G1 X103.448 Y81.853 E0.9700
G1 X104.544 Y81.272 E1.0202
G1 X104.822 Y81.149 E1.0324
G1 X105.956 Y80.744 E1.0811
G1 X106.174 Y80.680 E1.0903
G1 X106.814 Y80.526 E1.1169
G1 X106.963 Y80.496 E1.1230
G1 X107.613 Y80.390 E1.1496
G1 X107.840 Y80.365 E1.1588
G1 X109.041 Y80.300 E1.2075
G1 X109.345 Y80.306 E1.2197
G1 X110.581 Y80.417 E1.2699
G1 X110.881 Y80.467 E1.2822
G1 X112.088 Y80.755 E1.3323
G1 X112.378 Y80.847 E1.3446
G1 X113.496 Y81.292 E1.3932
G1 X113.702 Y81.388 E1.4024
G1 X114.318 Y81.714 E1.4306
G1 X114.513 Y81.832 E1.4398
G1 X115.478 Y82.486 E1.4869
G1 X115.659 Y82.624 E1.4961
G1 X116.190 Y83.075 E1.5243
G1 X116.355 Y83.231 E1.5335
G1 X117.183 Y84.105 E1.5821
G1 X117.375 Y84.340 E1.5944
G1 X118.068 Y85.324 E1.6430
G1 X118.189 Y85.517 E1.6522
G1 X118.508 Y86.093 E1.6788
G1 X118.577 Y86.228 E1.6849
G1 X118.853 Y86.826 E1.7116
G1 X118.938 Y87.038 E1.7208
G1 X119.322 Y88.178 E1.7694
G1 X119.398 Y88.472 E1.7817
G1 X119.614 Y89.656 E1.8303
G1 X119.643 Y89.882 E1.8395
G1 X119.693 Y90.577 E1.8677
G1 X119.697 Y90.804 E1.8769
G1 X119.654 Y92.007 E1.9255
G1 X119.621 Y92.309 E1.9378
G1 X119.398 Y93.530 E1.9879
G1 X119.322 Y93.824 E2.0002
G1 X118.938 Y94.965 E2.0488
G1 X118.853 Y95.176 E2.0580
G1 X118.577 Y95.774 E2.0847
G1 X118.508 Y95.909 E2.0908
G1 X118.189 Y96.486 E2.1174
G1 X118.068 Y96.678 E2.1266
G1 X117.375 Y97.662 E2.1752
G1 X117.183 Y97.897 E2.1875
G1 X116.355 Y98.771 E2.2361
G1 X116.190 Y98.927 E2.2453
G1 X115.659 Y99.379 E2.2735
G1 X115.478 Y99.516 E2.2827
G1 X114.771 Y99.995 E2.3172
G1 X114.846 Y100.039 E2.3207
G1 X115.037 Y100.163 E2.3299
G1 X115.569 Y100.552 E2.3565
G1 X115.688 Y100.646 E2.3626
G1 X116.190 Y101.073 E2.3893
G1 X116.355 Y101.229 E2.3985
G1 X117.183 Y102.103 E2.4471
G1 X117.375 Y102.338 E2.4594
G1 X118.090 Y103.353 E2.5095
G1 X118.247 Y103.613 E2.5218
G1 X118.791 Y104.686 E2.5704
G1 X118.883 Y104.894 E2.5796
G1 X119.129 Y105.546 E2.6078
G1 X119.198 Y105.763 E2.6170
G1 X119.499 Y106.928 E2.6656
G1 X119.553 Y107.227 E2.6779
G1 X119.683 Y108.423 E2.7265
G1 X119.696 Y108.650 E2.7357
G1 X119.696 Y109.347 E2.7639
G1 X119.683 Y109.575 E2.7731
G1 X119.553 Y110.771 E2.8217
G1 X119.499 Y111.070 E2.8340
G1 X119.198 Y112.235 E2.8826
G1 X119.129 Y112.452 E2.8918
G1 X118.883 Y113.104 E2.9200
G1 X118.791 Y113.312 E2.9292
