; G-Code generated by Simplify3D(R) Version 4.1.2
; Jun 16, 2021 at 4:53:13 PM
; Settings Summary
;   processName,Process1
;   applyToModels,porta manguera,porta manguera 2,porta manguera 4,porta manguera 3,porta manguera 4(2),porta manguera 3(2)
;   profileName,wanhao1 (modified)
;   profileVersion,2021-01-03 22:54:49
;   baseProfile,Default
;   printMaterial,PLA
;   printQuality,Medium
;   printExtruders,
;   extruderName,Primary Extruder
;   extruderToolheadNumber,0
;   extruderDiameter,0.35
;   extruderAutoWidth,0
;   extruderWidth,0.4
;   extrusionMultiplier,0.9
;   extruderUseRetract,1
;   extruderRetractionDistance,1
;   extruderExtraRestartDistance,0
;   extruderRetractionZLift,0
;   extruderRetractionSpeed,1800
;   extruderUseCoasting,0
;   extruderCoastingDistance,0.2
;   extruderUseWipe,0
;   extruderWipeDistance,5
;   primaryExtruder,0
;   layerHeight,0.15
;   topSolidLayers,4
;   bottomSolidLayers,3
;   perimeterOutlines,2
;   printPerimetersInsideOut,1
;   startPointOption,2
;   startPointOriginX,0
;   startPointOriginY,0
;   sequentialIslands,0
;   spiralVaseMode,0
;   firstLayerHeightPercentage,90
;   firstLayerWidthPercentage,100
;   firstLayerUnderspeed,0.5
;   useRaft,0
;   raftExtruder,0
;   raftTopLayers,3
;   raftBaseLayers,2
;   raftOffset,3
;   raftSeparationDistance,0.14
;   raftTopInfill,100
;   aboveRaftSpeedMultiplier,0.3
;   useSkirt,1
;   skirtExtruder,0
;   skirtLayers,1
;   skirtOutlines,2
;   skirtOffset,4
;   usePrimePillar,0
;   primePillarExtruder,999
;   primePillarWidth,12
;   primePillarLocation,7
;   primePillarSpeedMultiplier,1
;   useOozeShield,0
;   oozeShieldExtruder,999
;   oozeShieldOffset,2
;   oozeShieldOutlines,1
;   oozeShieldSidewallShape,1
;   oozeShieldSidewallAngle,30
;   oozeShieldSpeedMultiplier,1
;   infillExtruder,0
;   internalInfillPattern,Rectilinear
;   externalInfillPattern,Rectilinear
;   infillPercentage,20
;   outlineOverlapPercentage,15
;   infillExtrusionWidthPercentage,100
;   minInfillLength,5
;   infillLayerInterval,1
;   internalInfillAngles,45,-45
;   overlapInternalInfillAngles,0
;   externalInfillAngles,45,-45
;   generateSupport,1
;   supportExtruder,0
;   supportInfillPercentage,15
;   supportExtraInflation,0
;   supportBaseLayers,0
;   denseSupportExtruder,0
;   denseSupportLayers,0
;   denseSupportInfillPercentage,70
;   supportLayerInterval,1
;   supportHorizontalPartOffset,0.3
;   supportUpperSeparationLayers,1
;   supportLowerSeparationLayers,1
;   supportType,0
;   supportGridSpacing,4
;   maxOverhangAngle,45
;   supportAngles,0
;   temperatureName,Primary Extruder
;   temperatureNumber,0
;   temperatureSetpointCount,1
;   temperatureSetpointLayers,1
;   temperatureSetpointTemperatures,210
;   temperatureStabilizeAtStartup,1
;   temperatureHeatedBed,0
;   fanLayers,1,2
;   fanSpeeds,0,100
;   blipFanToFullPower,0
;   adjustSpeedForCooling,1
;   minSpeedLayerTime,15
;   minCoolingSpeedSlowdown,20
;   increaseFanForCooling,0
;   minFanLayerTime,45
;   maxCoolingFanSpeed,100
;   increaseFanForBridging,0
;   bridgingFanSpeed,100
;   use5D,1
;   relativeEdistances,0
;   allowEaxisZeroing,1
;   independentExtruderAxes,0
;   includeM10123,0
;   stickySupport,1
;   applyToolheadOffsets,0
;   gcodeXoffset,0
;   gcodeYoffset,0
;   gcodeZoffset,0
;   overrideMachineDefinition,0
;   machineTypeOverride,0
;   strokeXoverride,200
;   strokeYoverride,200
;   strokeZoverride,200
;   originOffsetXoverride,0
;   originOffsetYoverride,0
;   originOffsetZoverride,0
;   homeXdirOverride,-1
;   homeYdirOverride,-1
;   homeZdirOverride,-1
;   flipXoverride,1
;   flipYoverride,-1
;   flipZoverride,1
;   toolheadOffsets,0,0|0,0|0,0|0,0|0,0|0,0
;   overrideFirmwareConfiguration,0
;   firmwareTypeOverride,RepRap (Marlin/Repetier/Sprinter)
;   GPXconfigOverride,r2
;   baudRateOverride,115200
;   overridePrinterModels,0
;   printerModelsOverride
;   startingGcode,G28 ; home all axes
;   layerChangeGcode,
;   retractionGcode,
;   toolChangeGcode,
;   endingGcode,M104 S0 ; turn off extruder,M140 S0 ; turn off bed,G0 X0 Y0; GO HOME,M84 ; disable motors
;   exportFileFormat,gcode
;   celebration,0
;   celebrationSong,Random Song
;   postProcessing,
;   defaultSpeed,1200
;   outlineUnderspeed,0.5
;   solidInfillUnderspeed,0.8
;   supportUnderspeed,0.8
;   rapidXYspeed,4800
;   rapidZspeed,1002
;   minBridgingArea,50
;   bridgingExtraInflation,0
;   bridgingExtrusionMultiplier,1
;   bridgingSpeedMultiplier,1
;   useFixedBridgingAngle,0
;   fixedBridgingAngle,0
;   applyBridgingToPerimeters,0
;   filamentDiameters,1.75|1.75|1.75|1.75|1.75|1.75
;   filamentPricesPerKg,46|46|46|46|46|46
;   filamentDensities,1.25|1.25|1.25|1.25|1.25|1.25
;   useMinPrintHeight,0
;   minPrintHeight,0
;   useMaxPrintHeight,0
;   maxPrintHeight,0
;   useDiaphragm,0
;   diaphragmLayerInterval,20
;   robustSlicing,1
;   mergeAllIntoSolid,0
;   onlyRetractWhenCrossingOutline,1
;   retractBetweenLayers,1
;   useRetractionMinTravel,0
;   retractionMinTravel,3
;   retractWhileWiping,0
;   onlyWipeOutlines,1
;   avoidCrossingOutline,0
;   maxMovementDetourFactor,3
;   toolChangeRetractionDistance,12
;   toolChangeExtraRestartDistance,-0.5
;   toolChangeRetractionSpeed,600
;   externalThinWallType,0
;   internalThinWallType,2
;   thinWallAllowedOverlapPercentage,10
;   singleExtrusionMinLength,1
;   singleExtrusionMinPrintingWidthPercentage,50
;   singleExtrusionMaxPrintingWidthPercentage,200
;   singleExtrusionEndpointExtension,0.2
;   horizontalSizeCompensation,0
G90
M82
M106 S0
M104 S210 T0
M109 S210 T0
G28 ; home all axes
; process Process1
; layer 1, Z = 0.135
T0
G92 E0.0000
G1 E-1.0000 F1800
; feature skirt
; tool H0.135 W0.400
G1 Z0.135 F1002
G1 X67.900 Y70.595 F4800
G1 E0.0000 F1800
G92 E0.0000
G1 X70.595 Y67.900 E0.0770 F600
G1 X94.405 Y67.900 E0.5581
G1 X95.000 Y68.495 E0.5751
G1 X95.595 Y67.900 E0.5921
G1 X119.405 Y67.900 E1.0732
G1 X121.000 Y69.495 E1.1188
G1 X122.595 Y67.900 E1.1643
G1 X129.405 Y67.900 E1.3019
G1 X132.100 Y70.595 E1.3789
G1 X132.100 Y82.256 E1.6146
G1 X131.882 Y82.500 E1.6212
G1 X132.100 Y82.744 E1.6278
G1 X132.100 Y94.405 E1.8634
G1 X129.405 Y97.100 E1.9404
G1 X122.595 Y97.100 E2.0780
G1 X122.100 Y96.605 E2.0922
G1 X122.100 Y102.900 E2.2194
G1 X126.616 Y102.900 E2.3106
G1 X129.311 Y105.595 E2.3876
G1 X129.311 Y115.405 E2.5858
G1 X128.716 Y116.000 E2.6028
G1 X129.311 Y116.595 E2.6198
G1 X129.311 Y126.405 E2.8181
G1 X126.616 Y129.100 E2.8951
G1 X107.100 Y129.100 E3.2894
G1 X107.100 Y129.405 E3.2956
G1 X104.405 Y132.100 E3.3726
G1 X70.595 Y132.100 E4.0557
G1 X67.900 Y129.405 E4.1327
G1 X67.900 Y105.595 E4.6138
G1 X68.495 Y105.000 E4.6308
G1 X67.900 Y104.405 E4.6478
G1 X67.900 Y70.595 E5.3310
G92 E0.0000
G1 E-1.0000 F1800
G1 X68.300 Y70.760 F4800
G1 E0.0000 F1800
G92 E0.0000
G1 X70.760 Y68.300 E0.0703 F600
G1 X94.240 Y68.300 E0.5447
G1 X95.000 Y69.060 E0.5664
G1 X95.760 Y68.300 E0.5882
G1 X119.240 Y68.300 E1.0626
G1 X121.000 Y70.060 E1.1129
G1 X122.760 Y68.300 E1.1632
G1 X129.240 Y68.300 E1.2941
G1 X131.700 Y70.760 E1.3644
G1 X131.700 Y82.103 E1.5936
G1 X131.345 Y82.500 E1.6043
G1 X131.700 Y82.897 E1.6151
G1 X131.700 Y94.240 E1.8443
G1 X129.240 Y96.700 E1.9146
G1 X122.760 Y96.700 E2.0455
G1 X121.700 Y95.640 E2.0758
G1 X121.700 Y103.300 E2.2306
G1 X126.451 Y103.300 E2.3266
G1 X128.911 Y105.760 E2.3969
G1 X128.911 Y115.240 E2.5884
G1 X128.151 Y116.000 E2.6101
G1 X128.911 Y116.760 E2.6319
G1 X128.911 Y126.240 E2.8234
G1 X126.451 Y128.700 E2.8937
G1 X106.700 Y128.700 E3.2928
G1 X106.700 Y129.240 E3.3037
G1 X104.240 Y131.700 E3.3740
G1 X70.760 Y131.700 E4.0505
G1 X68.300 Y129.240 E4.1208
G1 X68.300 Y105.760 E4.5952
G1 X69.060 Y105.000 E4.6169
G1 X68.300 Y104.240 E4.6386
G1 X68.300 Y70.760 E5.3151
G92 E0.0000
G1 E-1.0000 F1800
; feature inner perimeter
G1 X73.100 Y73.100 F4800
G1 E0.0000 F1800
G92 E0.0000
G1 X91.900 Y73.100 E0.3799 F450
G1 X91.900 Y101.900 E0.9618
G1 X73.100 Y101.900 E1.3416
G1 X73.100 Y73.100 E1.9236
; feature outer perimeter
G1 X72.700 Y72.700 F4800
G92 E0.0000
G1 X92.300 Y72.700 E0.3960 F300
G1 X92.300 Y102.300 E0.9941
G1 X72.700 Y102.300 E1.3901
G1 X72.700 Y72.700 E1.9882
; feature inner perimeter
G1 X79.655 Y76.265 F4800
G92 E0.0000
G1 X79.512 Y76.670 E0.0087 F450
G1 X79.427 Y77.078 E0.0171
G1 X79.399 Y77.500 E0.0256
G1 X79.427 Y77.922 E0.0342
G1 X79.514 Y78.337 E0.0428
G1 X79.655 Y78.736 E0.0513
G1 X79.850 Y79.111 E0.0599
G1 X80.094 Y79.457 E0.0684
G1 X80.383 Y79.767 E0.0770
G1 X80.711 Y80.034 E0.0855
G1 X81.073 Y80.254 E0.0941
G1 X81.461 Y80.422 E0.1026
G1 X81.869 Y80.537 E0.1112
G1 X82.288 Y80.594 E0.1197
G1 X82.712 Y80.594 E0.1283
G1 X83.131 Y80.537 E0.1368
G1 X83.539 Y80.422 E0.1454
G1 X83.927 Y80.254 E0.1539
G1 X84.289 Y80.034 E0.1625
G1 X84.617 Y79.767 E0.1710
G1 X84.906 Y79.457 E0.1796
G1 X85.150 Y79.111 E0.1881
G1 X85.345 Y78.736 E0.1967
G1 X85.486 Y78.337 E0.2053
G1 X85.573 Y77.922 E0.2138
G1 X85.601 Y77.500 E0.2224
G1 X85.573 Y77.078 E0.2309
G1 X85.486 Y76.663 E0.2395
G1 X85.345 Y76.264 E0.2480
G1 X85.150 Y75.889 E0.2566
G1 X84.906 Y75.543 E0.2651
G1 X84.617 Y75.233 E0.2737
G1 X84.289 Y74.966 E0.2822
G1 X83.927 Y74.746 E0.2908
G1 X83.539 Y74.578 E0.2993
G1 X83.131 Y74.463 E0.3079
G1 X82.712 Y74.406 E0.3164
G1 X82.288 Y74.406 E0.3250
G1 X81.869 Y74.463 E0.3335
G1 X81.461 Y74.578 E0.3421
G1 X81.073 Y74.746 E0.3507
G1 X80.711 Y74.966 E0.3592
G1 X80.383 Y75.233 E0.3678
G1 X80.094 Y75.543 E0.3763
G1 X79.850 Y75.889 E0.3849
G1 X79.655 Y76.265 E0.3934
; feature outer perimeter
G1 X80.023 Y76.424 F4800
G92 E0.0000
G1 X79.898 Y76.777 E0.0076 F300
G1 X79.825 Y77.132 E0.0149
G1 X79.800 Y77.500 E0.0223
G1 X79.825 Y77.868 E0.0298
G1 X79.900 Y78.229 E0.0372
G1 X80.023 Y78.576 E0.0447
G1 X80.193 Y78.903 E0.0521
G1 X80.405 Y79.204 E0.0596
G1 X80.657 Y79.474 E0.0670
G1 X80.943 Y79.706 E0.0745
G1 X81.258 Y79.898 E0.0819
G1 X81.596 Y80.045 E0.0894
G1 X81.951 Y80.144 E0.0968
G1 X82.316 Y80.194 E0.1043
G1 X82.684 Y80.194 E0.1117
G1 X83.049 Y80.144 E0.1191
G1 X83.404 Y80.045 E0.1266
G1 X83.742 Y79.898 E0.1340
G1 X84.057 Y79.706 E0.1415
G1 X84.343 Y79.474 E0.1489
G1 X84.595 Y79.204 E0.1564
G1 X84.807 Y78.903 E0.1638
G1 X84.977 Y78.576 E0.1713
G1 X85.100 Y78.229 E0.1787
G1 X85.175 Y77.868 E0.1862
G1 X85.200 Y77.500 E0.1936
G1 X85.175 Y77.132 E0.2011
G1 X85.100 Y76.771 E0.2085
G1 X84.977 Y76.424 E0.2160
G1 X84.807 Y76.097 E0.2234
G1 X84.595 Y75.796 E0.2309
G1 X84.343 Y75.526 E0.2383
G1 X84.057 Y75.294 E0.2458
G1 X83.742 Y75.102 E0.2532
G1 X83.404 Y74.955 E0.2606
G1 X83.049 Y74.856 E0.2681
G1 X82.684 Y74.806 E0.2755
G1 X82.316 Y74.806 E0.2830
G1 X81.951 Y74.856 E0.2904
G1 X81.596 Y74.955 E0.2979
G1 X81.258 Y75.102 E0.3053
G1 X80.943 Y75.294 E0.3128
G1 X80.657 Y75.526 E0.3202
G1 X80.405 Y75.796 E0.3277
G1 X80.193 Y76.097 E0.3351
G1 X80.023 Y76.424 E0.3426
G92 E0.0000
G1 E-1.0000 F1800
; feature inner perimeter
G1 X82.288 Y94.406 F4800
G1 E0.0000 F1800
G92 E0.0000
G1 X81.869 Y94.463 E0.0086 F450
G1 X81.461 Y94.578 E0.0171
G1 X81.073 Y94.746 E0.0257
G1 X80.711 Y94.966 E0.0342
G1 X80.383 Y95.233 E0.0428
G1 X80.094 Y95.543 E0.0513
G1 X79.850 Y95.889 E0.0599
G1 X79.655 Y96.264 E0.0684
G1 X79.514 Y96.663 E0.0770
G1 X79.427 Y97.078 E0.0855
G1 X79.399 Y97.500 E0.0941
G1 X79.427 Y97.922 E0.1026
G1 X79.514 Y98.337 E0.1112
G1 X79.655 Y98.736 E0.1197
G1 X79.850 Y99.111 E0.1283
G1 X80.094 Y99.457 E0.1368
G1 X80.383 Y99.767 E0.1454
G1 X80.711 Y100.034 E0.1540
G1 X81.073 Y100.254 E0.1625
G1 X81.461 Y100.422 E0.1711
G1 X81.869 Y100.537 E0.1796
G1 X82.288 Y100.594 E0.1882
G1 X82.712 Y100.594 E0.1967
G1 X83.131 Y100.537 E0.2053
G1 X83.539 Y100.422 E0.2138
G1 X83.927 Y100.254 E0.2224
G1 X84.289 Y100.034 E0.2309
G1 X84.617 Y99.767 E0.2395
G1 X84.906 Y99.457 E0.2480
G1 X85.150 Y99.111 E0.2566
G1 X85.345 Y98.736 E0.2651
G1 X85.486 Y98.337 E0.2737
G1 X85.573 Y97.922 E0.2822
G1 X85.601 Y97.500 E0.2908
G1 X85.573 Y97.078 E0.2993
G1 X85.486 Y96.663 E0.3079
G1 X85.345 Y96.264 E0.3165
G1 X85.150 Y95.889 E0.3250
G1 X84.906 Y95.543 E0.3336
G1 X84.617 Y95.233 E0.3421
G1 X84.289 Y94.966 E0.3507
G1 X83.927 Y94.746 E0.3592
G1 X83.538 Y94.577 E0.3678
G1 X83.125 Y94.463 E0.3765
G1 X82.712 Y94.406 E0.3849
G1 X82.288 Y94.406 E0.3934
; feature outer perimeter
G1 X82.316 Y94.806 F4800
G92 E0.0000
G1 X81.951 Y94.856 E0.0074 F300
G1 X81.596 Y94.955 E0.0149
G1 X81.258 Y95.102 E0.0223
G1 X80.943 Y95.294 E0.0298
G1 X80.657 Y95.526 E0.0372
G1 X80.405 Y95.796 E0.0447
G1 X80.193 Y96.097 E0.0521
G1 X80.023 Y96.424 E0.0596
G1 X79.900 Y96.771 E0.0670
G1 X79.825 Y97.132 E0.0745
G1 X79.800 Y97.500 E0.0819
G1 X79.825 Y97.868 E0.0894
G1 X79.900 Y98.229 E0.0968
G1 X80.023 Y98.576 E0.1043
G1 X80.193 Y98.903 E0.1117
G1 X80.405 Y99.204 E0.1192
G1 X80.657 Y99.474 E0.1266
G1 X80.943 Y99.706 E0.1340
G1 X81.258 Y99.898 E0.1415
G1 X81.596 Y100.045 E0.1489
G1 X81.951 Y100.144 E0.1564
G1 X82.316 Y100.194 E0.1638
G1 X82.684 Y100.194 E0.1713
G1 X83.049 Y100.144 E0.1787
G1 X83.404 Y100.045 E0.1862
G1 X83.742 Y99.898 E0.1936
G1 X84.057 Y99.706 E0.2011
G1 X84.343 Y99.474 E0.2085
G1 X84.595 Y99.204 E0.2160
G1 X84.807 Y98.903 E0.2234
G1 X84.977 Y98.576 E0.2309
G1 X85.100 Y98.229 E0.2383
G1 X85.175 Y97.868 E0.2458
G1 X85.200 Y97.500 E0.2532
G1 X85.175 Y97.132 E0.2607
G1 X85.100 Y96.771 E0.2681
G1 X84.977 Y96.424 E0.2755
G1 X84.807 Y96.097 E0.2830
G1 X84.595 Y95.796 E0.2904
G1 X84.343 Y95.526 E0.2979
G1 X84.057 Y95.294 E0.3053
G1 X83.742 Y95.102 E0.3128
G1 X83.404 Y94.955 E0.3202
G1 X83.043 Y94.855 E0.3278
G1 X82.684 Y94.806 E0.3351
G1 X82.316 Y94.806 E0.3426
; feature solid layer
G1 X85.230 Y95.412 F4800
G92 E0.0000
G1 X91.378 Y101.560 E0.1757 F480
G1 X90.812 Y101.560 E0.1871
G1 X85.810 Y96.558 E0.3300
G1 X85.815 Y96.571 E0.3303
G1 X85.910 Y97.031 E0.3398
G1 X85.924 Y97.238 E0.3440
G1 X90.246 Y101.560 E0.4675
G1 X89.681 Y101.560 E0.4790
G1 X85.922 Y97.801 E0.5864
G1 X85.910 Y97.969 E0.5898
G1 X85.844 Y98.289 E0.5964
G1 X89.115 Y101.560 E0.6898
G1 X88.549 Y101.560 E0.7013
G1 X85.711 Y98.721 E0.7824
G1 X85.657 Y98.871 E0.7856
G1 X85.534 Y99.110 E0.7910
G1 X87.984 Y101.560 E0.8610
G1 X87.418 Y101.560 E0.8725
G1 X85.319 Y99.461 E0.9324
G1 X85.170 Y99.672 E0.9377
G1 X85.071 Y99.779 E0.9406
G1 X86.852 Y101.560 E0.9915
G1 X86.287 Y101.560 E1.0029
G1 X84.790 Y100.064 E1.0457
G1 X84.485 Y100.312 E1.0536
G1 X84.478 Y100.317 E1.0538
G1 X85.721 Y101.560 E1.0893
G1 X85.155 Y101.560 E1.1008
G1 X84.126 Y100.531 E1.1302
G1 X84.084 Y100.556 E1.1312
G1 X83.737 Y100.707 E1.1388
G1 X84.589 Y101.560 E1.1632
G1 X84.024 Y101.560 E1.1746
G1 X83.305 Y100.841 E1.1952
G1 X83.200 Y100.870 E1.1974
G1 X82.820 Y100.922 E1.2051
G1 X83.458 Y101.560 E1.2233
G1 X82.892 Y101.560 E1.2348
G1 X82.265 Y100.934 E1.2527
G1 X81.800 Y100.870 E1.2622
G1 X81.574 Y100.807 E1.2669
G1 X82.327 Y101.560 E1.2884
G1 X81.761 Y101.560 E1.2999
G1 X80.506 Y100.305 E1.3357
G1 X73.440 Y101.159 F4800
G92 E0.0000
G1 X73.841 Y101.560 E0.0115 F480
G1 X74.407 Y101.560 E0.0229
G1 X73.440 Y100.593 E0.0505
G1 X73.440 Y100.027 E0.0620
G1 X74.973 Y101.560 E0.1058
G1 X75.538 Y101.560 E0.1172
G1 X73.440 Y99.462 E0.1772
G1 X73.440 Y98.896 E0.1886
G1 X76.104 Y101.560 E0.2647
G1 X76.670 Y101.560 E0.2761
G1 X73.440 Y98.330 E0.3684
G1 X73.440 Y97.764 E0.3799
G1 X77.236 Y101.560 E0.4883
G1 X77.801 Y101.560 E0.4998
G1 X73.440 Y97.199 E0.6244
G1 X73.440 Y96.633 E0.6358
G1 X78.367 Y101.560 E0.7766
G1 X78.933 Y101.560 E0.7880
G1 X73.440 Y96.067 E0.9450
G1 X73.440 Y95.502 E0.9564
G1 X79.498 Y101.560 E1.1295
G1 X80.064 Y101.560 E1.1410
G1 X73.440 Y94.936 E1.3302
G1 X73.440 Y94.370 E1.3417
G1 X80.630 Y101.560 E1.5471
G1 X81.195 Y101.560 E1.5585
G1 X73.440 Y93.805 E1.7801
G1 X73.440 Y93.239 E1.7916
G1 X79.725 Y99.524 E1.9712
G1 X79.559 Y99.288 E1.9770
G1 X79.343 Y98.871 E1.9865
G1 X79.185 Y98.429 E1.9960
G1 X79.183 Y98.416 E1.9963
G1 X73.440 Y92.673 E2.1604
G1 X73.440 Y92.108 E2.1718
G1 X79.074 Y97.742 E2.3328
G1 X79.058 Y97.500 E2.3377
G1 X79.080 Y97.182 E2.3441
G1 X73.440 Y91.542 E2.5053
G1 X73.440 Y90.976 E2.5167
G1 X79.160 Y96.696 E2.6802
G1 X79.185 Y96.571 E2.6827
G1 X79.294 Y96.265 E2.6893
G1 X73.440 Y90.411 E2.8566
G1 X73.440 Y89.845 E2.8680
G1 X79.473 Y95.878 E3.0404
G1 X79.559 Y95.711 E3.0442
