; G-Code generated by Simplify3D(R) Version 4.1.2
; Jun 16, 2021 at 9:03:07 PM
; Settings Summary
;   processName,Process1
;   applyToModels,porta sensor
;   profileName,wanhao1 (modified)
;   profileVersion,2021-01-03 22:54:49
;   baseProfile,Default
;   printMaterial,PLA
;   printQuality,Medium
;   printExtruders,
;   extruderName,Primary Extruder
;   extruderToolheadNumber,0
;   extruderDiameter,0.35
;   extruderAutoWidth,0
;   extruderWidth,0.4
;   extrusionMultiplier,0.9
;   extruderUseRetract,1
;   extruderRetractionDistance,1
;   extruderExtraRestartDistance,0
;   extruderRetractionZLift,0
;   extruderRetractionSpeed,1800
;   extruderUseCoasting,0
;   extruderCoastingDistance,0.2
;   extruderUseWipe,0
;   extruderWipeDistance,5
;   primaryExtruder,0
;   layerHeight,0.3
;   topSolidLayers,4
;   bottomSolidLayers,3
;   perimeterOutlines,2
;   printPerimetersInsideOut,1
;   startPointOption,2
;   startPointOriginX,0
;   startPointOriginY,0
;   sequentialIslands,0
;   spiralVaseMode,0
;   firstLayerHeightPercentage,90
;   firstLayerWidthPercentage,100
;   firstLayerUnderspeed,0.5
;   useRaft,0
;   raftExtruder,0
;   raftTopLayers,3
;   raftBaseLayers,2
;   raftOffset,3
;   raftSeparationDistance,0.14
;   raftTopInfill,100
;   aboveRaftSpeedMultiplier,0.3
;   useSkirt,1
;   skirtExtruder,0
;   skirtLayers,1
;   skirtOutlines,2
;   skirtOffset,4
;   usePrimePillar,0
;   primePillarExtruder,999
;   primePillarWidth,12
;   primePillarLocation,7
;   primePillarSpeedMultiplier,1
;   useOozeShield,0
;   oozeShieldExtruder,999
;   oozeShieldOffset,2
;   oozeShieldOutlines,1
;   oozeShieldSidewallShape,1
;   oozeShieldSidewallAngle,30
;   oozeShieldSpeedMultiplier,1
;   infillExtruder,0
;   internalInfillPattern,Rectilinear
;   externalInfillPattern,Rectilinear
;   infillPercentage,20
;   outlineOverlapPercentage,15
;   infillExtrusionWidthPercentage,100
;   minInfillLength,5
;   infillLayerInterval,1
;   internalInfillAngles,45,-45
;   overlapInternalInfillAngles,0
;   externalInfillAngles,45,-45
;   generateSupport,1
;   supportExtruder,0
;   supportInfillPercentage,15
;   supportExtraInflation,0
;   supportBaseLayers,0
;   denseSupportExtruder,0
;   denseSupportLayers,0
;   denseSupportInfillPercentage,70
;   supportLayerInterval,1
;   supportHorizontalPartOffset,0.3
;   supportUpperSeparationLayers,1
;   supportLowerSeparationLayers,1
;   supportType,0
;   supportGridSpacing,4
;   maxOverhangAngle,45
;   supportAngles,0
;   temperatureName,Primary Extruder
;   temperatureNumber,0
;   temperatureSetpointCount,1
;   temperatureSetpointLayers,1
;   temperatureSetpointTemperatures,210
;   temperatureStabilizeAtStartup,1
;   temperatureHeatedBed,0
;   fanLayers,1,2
;   fanSpeeds,0,100
;   blipFanToFullPower,0
;   adjustSpeedForCooling,1
;   minSpeedLayerTime,15
;   minCoolingSpeedSlowdown,20
;   increaseFanForCooling,0
;   minFanLayerTime,45
;   maxCoolingFanSpeed,100
;   increaseFanForBridging,0
;   bridgingFanSpeed,100
;   use5D,1
;   relativeEdistances,0
;   allowEaxisZeroing,1
;   independentExtruderAxes,0
;   includeM10123,0
;   stickySupport,1
;   applyToolheadOffsets,0
;   gcodeXoffset,0
;   gcodeYoffset,0
;   gcodeZoffset,0
;   overrideMachineDefinition,0
;   machineTypeOverride,0
;   strokeXoverride,200
;   strokeYoverride,200
;   strokeZoverride,200
;   originOffsetXoverride,0
;   originOffsetYoverride,0
;   originOffsetZoverride,0
;   homeXdirOverride,-1
;   homeYdirOverride,-1
;   homeZdirOverride,-1
;   flipXoverride,1
;   flipYoverride,-1
;   flipZoverride,1
;   toolheadOffsets,0,0|0,0|0,0|0,0|0,0|0,0
;   overrideFirmwareConfiguration,0
;   firmwareTypeOverride,RepRap (Marlin/Repetier/Sprinter)
;   GPXconfigOverride,r2
;   baudRateOverride,115200
;   overridePrinterModels,0
;   printerModelsOverride
;   startingGcode,G28 ; home all axes
;   layerChangeGcode,
;   retractionGcode,
;   toolChangeGcode,
;   endingGcode,M104 S0 ; turn off extruder,M140 S0 ; turn off bed,G0 X0 Y0; GO HOME,M84 ; disable motors
;   exportFileFormat,gcode
;   celebration,0
;   celebrationSong,Random Song
;   postProcessing,
;   defaultSpeed,4800
;   outlineUnderspeed,0.5
;   solidInfillUnderspeed,0.8
;   supportUnderspeed,0.8
;   rapidXYspeed,4800
;   rapidZspeed,1002
;   minBridgingArea,50
;   bridgingExtraInflation,0
;   bridgingExtrusionMultiplier,1
;   bridgingSpeedMultiplier,1
;   useFixedBridgingAngle,0
;   fixedBridgingAngle,0
;   applyBridgingToPerimeters,0
;   filamentDiameters,1.75|1.75|1.75|1.75|1.75|1.75
;   filamentPricesPerKg,46|46|46|46|46|46
;   filamentDensities,1.25|1.25|1.25|1.25|1.25|1.25
;   useMinPrintHeight,0
;   minPrintHeight,0
;   useMaxPrintHeight,0
;   maxPrintHeight,0
;   useDiaphragm,0
;   diaphragmLayerInterval,20
;   robustSlicing,1
;   mergeAllIntoSolid,0
;   onlyRetractWhenCrossingOutline,1
;   retractBetweenLayers,1
;   useRetractionMinTravel,0
;   retractionMinTravel,3
;   retractWhileWiping,0
;   onlyWipeOutlines,1
;   avoidCrossingOutline,0
;   maxMovementDetourFactor,3
;   toolChangeRetractionDistance,12
;   toolChangeExtraRestartDistance,-0.5
;   toolChangeRetractionSpeed,600
;   externalThinWallType,0
;   internalThinWallType,2
;   thinWallAllowedOverlapPercentage,10
;   singleExtrusionMinLength,1
;   singleExtrusionMinPrintingWidthPercentage,50
;   singleExtrusionMaxPrintingWidthPercentage,200
;   singleExtrusionEndpointExtension,0.2
;   horizontalSizeCompensation,0
G90
M82
M106 S0
M104 S210 T0
M109 S210 T0
G28 ; home all axes
; process Process1
; layer 1, Z = 0.270
T0
G92 E0.0000
G1 E-1.0000 F1800
; feature skirt
; tool H0.270 W0.400
G1 Z0.270 F1002
G1 X73.400 Y68.095 F4800
G1 E0.0000 F1800
G92 E0.0000
G1 X76.095 Y65.400 E0.1540 F2400
G1 X83.905 Y65.400 E0.4696
G1 X86.600 Y68.095 E0.6236
G1 X86.600 Y101.400 E1.9695
G1 X111.400 Y101.400 E2.9717
G1 X111.400 Y93.095 E3.3074
G1 X114.095 Y90.400 E3.4614
G1 X123.905 Y90.400 E3.8578
G1 X126.600 Y93.095 E4.0118
G1 X126.600 Y131.905 E5.5802
G1 X123.905 Y134.600 E5.7342
G1 X114.095 Y134.600 E6.1307
G1 X111.400 Y131.905 E6.2847
G1 X111.400 Y124.100 E6.6001
G1 X76.095 Y124.100 E8.0268
G1 X73.400 Y121.405 E8.1808
G1 X73.400 Y68.095 E10.3352
G92 E0.0000
G1 E-1.0000 F1800
G1 X73.800 Y68.260 F4800
G1 E0.0000 F1800
G92 E0.0000
G1 X76.260 Y65.800 E0.1406 F2400
G1 X83.740 Y65.800 E0.4429
G1 X86.200 Y68.260 E0.5835
G1 X86.200 Y101.800 E1.9388
G1 X111.800 Y101.800 E2.9734
G1 X111.800 Y93.260 E3.3185
G1 X114.260 Y90.800 E3.4591
G1 X123.740 Y90.800 E3.8421
G1 X126.200 Y93.260 E3.9827
G1 X126.200 Y131.740 E5.5377
G1 X123.740 Y134.200 E5.6783
G1 X114.260 Y134.200 E6.0614
G1 X111.800 Y131.740 E6.2020
G1 X111.800 Y123.700 E6.5269
G1 X76.260 Y123.700 E7.9631
G1 X73.800 Y121.240 E8.1037
G1 X73.800 Y68.260 E10.2447
G92 E0.0000
G1 E-1.0000 F1800
; feature inner perimeter
G1 X78.600 Y70.600 F4800
G1 E0.0000 F1800
G92 E0.0000
G1 X81.400 Y70.600 E0.1132 F1800
G1 X81.400 Y106.600 E1.5679
G1 X116.600 Y106.600 E2.9904
G1 X116.600 Y95.600 E3.4349
G1 X121.400 Y95.600 E3.6289
G1 X121.400 Y129.400 E4.9948
G1 X116.600 Y129.400 E5.1888
G1 X116.600 Y118.900 E5.6131
G1 X78.600 Y118.900 E7.1487
G1 X78.600 Y70.600 E9.1006
; feature outer perimeter
G1 X78.200 Y70.200 F4800
G92 E0.0000
G1 X81.800 Y70.200 E0.1455 F1200
G1 X81.800 Y106.200 E1.6003
G1 X116.200 Y106.200 E2.9904
G1 X116.200 Y95.200 E3.4349
G1 X121.800 Y95.200 E3.6612
G1 X121.800 Y129.800 E5.0595
G1 X116.200 Y129.800 E5.2858
G1 X116.200 Y119.300 E5.7101
G1 X78.200 Y119.300 E7.2457
G1 X78.200 Y70.200 E9.2299
; feature solid layer
G1 X80.557 Y70.940 F4800
G92 E0.0000
G1 X81.060 Y71.443 E0.0288 F1920
G1 X81.060 Y72.009 E0.0516
G1 X79.991 Y70.940 E0.1127
G1 X79.425 Y70.940 E0.1356
G1 X81.060 Y72.575 E0.2290
G1 X81.060 Y73.140 E0.2519
G1 X78.940 Y71.020 E0.3730
G1 X78.940 Y71.586 E0.3959
G1 X81.060 Y73.706 E0.5170
G1 X81.060 Y74.272 E0.5399
G1 X78.940 Y72.152 E0.6611
G1 X78.940 Y72.717 E0.6839
G1 X81.060 Y74.837 E0.8051
G1 X81.060 Y75.403 E0.8279
G1 X78.940 Y73.283 E0.9491
G1 X78.940 Y73.849 E0.9720
G1 X81.060 Y75.969 E1.0931
G1 X81.060 Y76.535 E1.1160
G1 X78.940 Y74.415 E1.2371
G1 X78.940 Y74.980 E1.2600
G1 X81.060 Y77.100 E1.3811
G1 X81.060 Y77.666 E1.4040
G1 X78.940 Y75.546 E1.5252
G1 X78.940 Y76.112 E1.5480
G1 X81.060 Y78.232 E1.6692
G1 X81.060 Y78.797 E1.6920
G1 X78.940 Y76.677 E1.8132
G1 X78.940 Y77.243 E1.8361
G1 X81.060 Y79.363 E1.9572
G1 X81.060 Y79.929 E1.9801
G1 X78.940 Y77.809 E2.1012
G1 X78.940 Y78.374 E2.1241
G1 X81.060 Y80.494 E2.2453
G1 X81.060 Y81.060 E2.2681
G1 X78.940 Y78.940 E2.3893
G1 X78.940 Y79.506 E2.4121
G1 X81.060 Y81.626 E2.5333
G1 X81.060 Y82.191 E2.5561
G1 X78.940 Y80.071 E2.6773
G1 X78.940 Y80.637 E2.7002
G1 X81.060 Y82.757 E2.8213
G1 X81.060 Y83.323 E2.8442
G1 X78.940 Y81.203 E2.9653
G1 X78.940 Y81.768 E2.9882
G1 X81.060 Y83.888 E3.1094
G1 X81.060 Y84.454 E3.1322
G1 X78.940 Y82.334 E3.2534
G1 X78.940 Y82.900 E3.2762
G1 X81.060 Y85.020 E3.3974
G1 X81.060 Y85.585 E3.4203
G1 X78.940 Y83.465 E3.5414
G1 X78.940 Y84.031 E3.5643
G1 X81.060 Y86.151 E3.6854
G1 X81.060 Y86.717 E3.7083
G1 X78.940 Y84.597 E3.8294
G1 X78.940 Y85.163 E3.8523
G1 X81.060 Y87.283 E3.9735
G1 X81.060 Y87.848 E3.9963
G1 X78.940 Y85.728 E4.1175
G1 X78.940 Y86.294 E4.1403
G1 X81.060 Y88.414 E4.2615
G1 X81.060 Y88.980 E4.2844
G1 X78.940 Y86.860 E4.4055
G1 X78.940 Y87.425 E4.4284
G1 X81.060 Y89.545 E4.5495
G1 X81.060 Y90.111 E4.5724
G1 X78.940 Y87.991 E4.6936
G1 X78.940 Y88.557 E4.7164
G1 X81.060 Y90.677 E4.8376
G1 X81.060 Y91.242 E4.8604
G1 X78.940 Y89.122 E4.9816
G1 X78.940 Y89.688 E5.0044
G1 X81.060 Y91.808 E5.1256
G1 X81.060 Y92.374 E5.1485
G1 X78.940 Y90.254 E5.2696
G1 X78.940 Y90.819 E5.2925
G1 X81.060 Y92.939 E5.4136
G1 X81.060 Y93.505 E5.4365
G1 X78.940 Y91.385 E5.5577
G1 X78.940 Y91.951 E5.5805
G1 X81.060 Y94.071 E5.7017
G1 X81.060 Y94.636 E5.7245
G1 X78.940 Y92.516 E5.8457
G1 X78.940 Y93.082 E5.8686
G1 X81.060 Y95.202 E5.9897
G1 X81.060 Y95.768 E6.0126
G1 X78.940 Y93.648 E6.1337
G1 X78.940 Y94.213 E6.1566
G1 X81.060 Y96.333 E6.2777
G1 X81.060 Y96.899 E6.3006
G1 X78.940 Y94.779 E6.4218
G1 X78.940 Y95.345 E6.4446
G1 X81.060 Y97.465 E6.5658
G1 X81.060 Y98.031 E6.5886
G1 X78.940 Y95.911 E6.7098
G1 X78.940 Y96.476 E6.7327
G1 X81.060 Y98.596 E6.8538
G1 X81.060 Y99.162 E6.8767
G1 X78.940 Y97.042 E6.9978
G1 X78.940 Y97.608 E7.0207
G1 X81.060 Y99.728 E7.1419
G1 X81.060 Y100.293 E7.1647
G1 X78.940 Y98.173 E7.2859
G1 X78.940 Y98.739 E7.3087
G1 X81.060 Y100.859 E7.4299
G1 X81.060 Y101.425 E7.4527
G1 X78.940 Y99.305 E7.5739
G1 X78.940 Y99.870 E7.5968
G1 X81.060 Y101.990 E7.7179
G1 X81.060 Y102.556 E7.7408
G1 X78.940 Y100.436 E7.8619
G1 X78.940 Y101.002 E7.8848
G1 X81.060 Y103.122 E8.0060
G1 X81.060 Y103.687 E8.0288
G1 X78.940 Y101.567 E8.1500
G1 X78.940 Y102.133 E8.1728
G1 X81.060 Y104.253 E8.2940
G1 X81.060 Y104.819 E8.3169
G1 X78.940 Y102.699 E8.4380
G1 X78.940 Y103.264 E8.4609
G1 X81.060 Y105.384 E8.5820
G1 X81.060 Y105.950 E8.6049
G1 X78.940 Y103.830 E8.7260
G1 X78.940 Y104.396 E8.7489
G1 X81.060 Y106.516 E8.8701
G1 X81.060 Y106.940 E8.8872
G1 X81.484 Y106.940 E8.9043
G1 X93.104 Y118.560 E9.5684
G1 X93.670 Y118.560 E9.5913
G1 X82.050 Y106.940 E10.2554
G1 X82.616 Y106.940 E10.2782
G1 X94.236 Y118.560 E10.9423
G1 X94.801 Y118.560 E10.9652
G1 X83.181 Y106.940 E11.6293
G1 X83.747 Y106.940 E11.6521
G1 X95.367 Y118.560 E12.3162
G1 X95.933 Y118.560 E12.3391
G1 X84.313 Y106.940 E13.0031
G1 X84.878 Y106.940 E13.0260
G1 X96.498 Y118.560 E13.6901
G1 X97.064 Y118.560 E13.7129
G1 X85.444 Y106.940 E14.3770
G1 X86.010 Y106.940 E14.3999
G1 X97.630 Y118.560 E15.0640
G1 X98.195 Y118.560 E15.0868
G1 X86.575 Y106.940 E15.7509
G1 X87.141 Y106.940 E15.7738
G1 X98.761 Y118.560 E16.4378
G1 X99.327 Y118.560 E16.4607
G1 X87.707 Y106.940 E17.1248
G1 X88.272 Y106.940 E17.1476
G1 X99.892 Y118.560 E17.8117
G1 X100.458 Y118.560 E17.8346
G1 X88.838 Y106.940 E18.4987
G1 X89.404 Y106.940 E18.5215
G1 X101.024 Y118.560 E19.1856
G1 X101.589 Y118.560 E19.2085
G1 X89.969 Y106.940 E19.8726
G1 X90.535 Y106.940 E19.8954
G1 X102.155 Y118.560 E20.5595
G1 X102.721 Y118.560 E20.5824
G1 X91.101 Y106.940 E21.2464
G1 X91.667 Y106.940 E21.2693
G1 X103.287 Y118.560 E21.9334
G1 X103.852 Y118.560 E21.9562
G1 X92.232 Y106.940 E22.6203
G1 X92.798 Y106.940 E22.6432
G1 X104.418 Y118.560 E23.3073
G1 X104.984 Y118.560 E23.3301
G1 X93.364 Y106.940 E23.9942
G1 X93.929 Y106.940 E24.0171
G1 X105.549 Y118.560 E24.6811
G1 X106.115 Y118.560 E24.7040
G1 X94.495 Y106.940 E25.3681
G1 X95.061 Y106.940 E25.3909
G1 X106.681 Y118.560 E26.0550
G1 X107.246 Y118.560 E26.0779
G1 X95.626 Y106.940 E26.7420
G1 X96.192 Y106.940 E26.7648
G1 X107.812 Y118.560 E27.4289
G1 X108.378 Y118.560 E27.4518
G1 X96.758 Y106.940 E28.1158
G1 X97.323 Y106.940 E28.1387
G1 X108.943 Y118.560 E28.8028
G1 X109.509 Y118.560 E28.8257
G1 X97.889 Y106.940 E29.4897
G1 X98.455 Y106.940 E29.5126
G1 X110.075 Y118.560 E30.1767
G1 X110.640 Y118.560 E30.1995
G1 X99.020 Y106.940 E30.8636
G1 X99.586 Y106.940 E30.8865
G1 X111.206 Y118.560 E31.5506
G1 X111.772 Y118.560 E31.5734
G1 X100.152 Y106.940 E32.2375
G1 X100.717 Y106.940 E32.2604
G1 X112.337 Y118.560 E32.9244
G1 X112.903 Y118.560 E32.9473
G1 X101.283 Y106.940 E33.6114
G1 X101.849 Y106.940 E33.6342
G1 X113.469 Y118.560 E34.2983
G1 X114.035 Y118.560 E34.3212
G1 X102.415 Y106.940 E34.9853
G1 X102.980 Y106.940 E35.0081
G1 X114.600 Y118.560 E35.6722
G1 X115.166 Y118.560 E35.6951
G1 X103.546 Y106.940 E36.3591
G1 X104.112 Y106.940 E36.3820
G1 X115.732 Y118.560 E37.0461
G1 X116.297 Y118.560 E37.0689
G1 X104.677 Y106.940 E37.7330
G1 X105.243 Y106.940 E37.7559
G1 X116.863 Y118.560 E38.4200
G1 X116.940 Y118.560 E38.4231
G1 X116.940 Y118.637 E38.4262
G1 X121.060 Y122.757 E38.6617
G1 X121.060 Y122.191 E38.6845
G1 X105.809 Y106.940 E39.5561
G1 X106.374 Y106.940 E39.5790
G1 X121.060 Y121.626 E40.4183
G1 X121.060 Y121.060 E40.4411
G1 X106.940 Y106.940 E41.2481
G1 X107.506 Y106.940 E41.2709
G1 X121.060 Y120.494 E42.0456
G1 X121.060 Y119.929 E42.0684
G1 X108.071 Y106.940 E42.8107
G1 X108.637 Y106.940 E42.8336
G1 X121.060 Y119.363 E43.5436
G1 X121.060 Y118.797 E43.5664
G1 X109.203 Y106.940 E44.2441
G1 X109.768 Y106.940 E44.2669
G1 X121.060 Y118.232 E44.9122
G1 X121.060 Y117.666 E44.9351
G1 X110.334 Y106.940 E45.5481
G1 X110.900 Y106.940 E45.5709
G1 X121.060 Y117.100 E46.1516
G1 X121.060 Y116.535 E46.1745
G1 X111.465 Y106.940 E46.7228
G1 X112.031 Y106.940 E46.7456
G1 X121.060 Y115.969 E47.2616
G1 X121.060 Y115.403 E47.2845
G1 X112.597 Y106.940 E47.7682
G1 X113.163 Y106.940 E47.7910
G1 X121.060 Y114.837 E48.2424
G1 X121.060 Y114.272 E48.2652
G1 X113.728 Y106.940 E48.6842
G1 X114.294 Y106.940 E48.7071
G1 X121.060 Y113.706 E49.0938
G1 X121.060 Y113.140 E49.1166
G1 X114.860 Y106.940 E49.4710
G1 X115.425 Y106.940 E49.4938
G1 X121.060 Y112.575 E49.8159
G1 X121.060 Y112.009 E49.8387
G1 X115.991 Y106.940 E50.1284
G1 X116.557 Y106.940 E50.1513
G1 X121.060 Y111.443 E50.4086
G1 X121.060 Y110.878 E50.4315
G1 X116.940 Y106.758 E50.6670
G1 X116.940 Y106.192 E50.6898
G1 X121.060 Y110.312 E50.9253
G1 X121.060 Y109.746 E50.9481
G1 X116.940 Y105.626 E51.1836
G1 X116.940 Y105.061 E51.2065
G1 X121.060 Y109.181 E51.4419
G1 X121.060 Y108.615 E51.4648
G1 X116.940 Y104.495 E51.7002
G1 X116.940 Y103.929 E51.7231
G1 X121.060 Y108.049 E51.9585
G1 X121.060 Y107.484 E51.9814
G1 X116.940 Y103.364 E52.2169
G1 X116.940 Y102.798 E52.2397
G1 X121.060 Y106.918 E52.4752
G1 X121.060 Y106.352 E52.4980
G1 X116.940 Y102.232 E52.7335
G1 X116.940 Y101.666 E52.7564
G1 X121.060 Y105.786 E52.9918
G1 X121.060 Y105.221 E53.0147
G1 X116.940 Y101.101 E53.2501
G1 X116.940 Y100.535 E53.2730
G1 X121.060 Y104.655 E53.5084
G1 X121.060 Y104.089 E53.5313
G1 X116.940 Y99.969 E53.7668
G1 X116.940 Y99.404 E53.7896
G1 X121.060 Y103.524 E54.0251
G1 X121.060 Y102.958 E54.0479
G1 X116.940 Y98.838 E54.2834
G1 X116.940 Y98.272 E54.3063
G1 X121.060 Y102.392 E54.5417
G1 X121.060 Y101.827 E54.5646
G1 X116.940 Y97.707 E54.8000
G1 X116.940 Y97.141 E54.8229
G1 X121.060 Y101.261 E55.0584
G1 X121.060 Y100.695 E55.0812
G1 X116.940 Y96.575 E55.3167
G1 X116.940 Y96.010 E55.3395
G1 X121.060 Y100.130 E55.5750
G1 X121.060 Y99.564 E55.5978
G1 X117.436 Y95.940 E55.8050
