; G-Code generated by Simplify3D(R) Version 4.1.2
; Jun 17, 2021 at 1:03:36 AM
; Settings Summary
;   processName,Process1
;   applyToModels,prueba eje
;   profileName,wanhao1 (modified)
;   profileVersion,2021-01-03 22:54:49
;   baseProfile,Default
;   printMaterial,PLA
;   printQuality,Medium
;   printExtruders,
;   extruderName,Primary Extruder
;   extruderToolheadNumber,0
;   extruderDiameter,0.35
;   extruderAutoWidth,0
;   extruderWidth,0.4
;   extrusionMultiplier,0.9
;   extruderUseRetract,1
;   extruderRetractionDistance,1
;   extruderExtraRestartDistance,0
;   extruderRetractionZLift,0
;   extruderRetractionSpeed,1800
;   extruderUseCoasting,0
;   extruderCoastingDistance,0.2
;   extruderUseWipe,0
;   extruderWipeDistance,5
;   primaryExtruder,0
;   layerHeight,0.2
;   topSolidLayers,4
;   bottomSolidLayers,3
;   perimeterOutlines,2
;   printPerimetersInsideOut,1
;   startPointOption,2
;   startPointOriginX,0
;   startPointOriginY,0
;   sequentialIslands,0
;   spiralVaseMode,0
;   firstLayerHeightPercentage,90
;   firstLayerWidthPercentage,100
;   firstLayerUnderspeed,0.5
;   useRaft,0
;   raftExtruder,0
;   raftTopLayers,3
;   raftBaseLayers,2
;   raftOffset,3
;   raftSeparationDistance,0.14
;   raftTopInfill,100
;   aboveRaftSpeedMultiplier,0.3
;   useSkirt,1
;   skirtExtruder,0
;   skirtLayers,1
;   skirtOutlines,2
;   skirtOffset,4
;   usePrimePillar,0
;   primePillarExtruder,999
;   primePillarWidth,12
;   primePillarLocation,7
;   primePillarSpeedMultiplier,1
;   useOozeShield,0
;   oozeShieldExtruder,999
;   oozeShieldOffset,2
;   oozeShieldOutlines,1
;   oozeShieldSidewallShape,1
;   oozeShieldSidewallAngle,30
;   oozeShieldSpeedMultiplier,1
;   infillExtruder,0
;   internalInfillPattern,Rectilinear
;   externalInfillPattern,Rectilinear
;   infillPercentage,20
;   outlineOverlapPercentage,15
;   infillExtrusionWidthPercentage,100
;   minInfillLength,5
;   infillLayerInterval,1
;   internalInfillAngles,45,-45
;   overlapInternalInfillAngles,0
;   externalInfillAngles,45,-45
;   generateSupport,1
;   supportExtruder,0
;   supportInfillPercentage,15
;   supportExtraInflation,0
;   supportBaseLayers,0
;   denseSupportExtruder,0
;   denseSupportLayers,0
;   denseSupportInfillPercentage,70
;   supportLayerInterval,1
;   supportHorizontalPartOffset,0.3
;   supportUpperSeparationLayers,1
;   supportLowerSeparationLayers,1
;   supportType,0
;   supportGridSpacing,4
;   maxOverhangAngle,45
;   supportAngles,0
;   temperatureName,Primary Extruder
;   temperatureNumber,0
;   temperatureSetpointCount,1
;   temperatureSetpointLayers,1
;   temperatureSetpointTemperatures,210
;   temperatureStabilizeAtStartup,1
;   temperatureHeatedBed,0
;   fanLayers,1,2
;   fanSpeeds,0,100
;   blipFanToFullPower,0
;   adjustSpeedForCooling,1
;   minSpeedLayerTime,15
;   minCoolingSpeedSlowdown,20
;   increaseFanForCooling,0
;   minFanLayerTime,45
;   maxCoolingFanSpeed,100
;   increaseFanForBridging,0
;   bridgingFanSpeed,100
;   use5D,1
;   relativeEdistances,0
;   allowEaxisZeroing,1
;   independentExtruderAxes,0
;   includeM10123,0
;   stickySupport,1
;   applyToolheadOffsets,0
;   gcodeXoffset,0
;   gcodeYoffset,0
;   gcodeZoffset,0
;   overrideMachineDefinition,0
;   machineTypeOverride,0
;   strokeXoverride,200
;   strokeYoverride,200
;   strokeZoverride,200
;   originOffsetXoverride,0
;   originOffsetYoverride,0
;   originOffsetZoverride,0
;   homeXdirOverride,-1
;   homeYdirOverride,-1
;   homeZdirOverride,-1
;   flipXoverride,1
;   flipYoverride,-1
;   flipZoverride,1
;   toolheadOffsets,0,0|0,0|0,0|0,0|0,0|0,0
;   overrideFirmwareConfiguration,0
;   firmwareTypeOverride,RepRap (Marlin/Repetier/Sprinter)
;   GPXconfigOverride,r2
;   baudRateOverride,115200
;   overridePrinterModels,0
;   printerModelsOverride
;   startingGcode,G28 ; home all axes
;   layerChangeGcode,
;   retractionGcode,
;   toolChangeGcode,
;   endingGcode,M104 S0 ; turn off extruder,M140 S0 ; turn off bed,G0 X0 Y0; GO HOME,M84 ; disable motors
;   exportFileFormat,gcode
;   celebration,0
;   celebrationSong,Random Song
;   postProcessing,
;   defaultSpeed,3000
;   outlineUnderspeed,0.5
;   solidInfillUnderspeed,0.8
;   supportUnderspeed,0.8
;   rapidXYspeed,4800
;   rapidZspeed,1002
;   minBridgingArea,50
;   bridgingExtraInflation,0
;   bridgingExtrusionMultiplier,1
;   bridgingSpeedMultiplier,1
;   useFixedBridgingAngle,0
;   fixedBridgingAngle,0
;   applyBridgingToPerimeters,0
;   filamentDiameters,1.75|1.75|1.75|1.75|1.75|1.75
;   filamentPricesPerKg,46|46|46|46|46|46
;   filamentDensities,1.25|1.25|1.25|1.25|1.25|1.25
;   useMinPrintHeight,0
;   minPrintHeight,0
;   useMaxPrintHeight,0
;   maxPrintHeight,0
;   useDiaphragm,0
;   diaphragmLayerInterval,20
;   robustSlicing,1
;   mergeAllIntoSolid,0
;   onlyRetractWhenCrossingOutline,1
;   retractBetweenLayers,1
;   useRetractionMinTravel,0
;   retractionMinTravel,3
;   retractWhileWiping,0
;   onlyWipeOutlines,1
;   avoidCrossingOutline,0
;   maxMovementDetourFactor,3
;   toolChangeRetractionDistance,12
;   toolChangeExtraRestartDistance,-0.5
;   toolChangeRetractionSpeed,600
;   externalThinWallType,0
;   internalThinWallType,2
;   thinWallAllowedOverlapPercentage,10
;   singleExtrusionMinLength,1
;   singleExtrusionMinPrintingWidthPercentage,50
;   singleExtrusionMaxPrintingWidthPercentage,200
;   singleExtrusionEndpointExtension,0.2
;   horizontalSizeCompensation,0
G90
M82
M106 S0
M104 S210 T0
M109 S210 T0
G28 ; home all axes
; process Process1
; layer 1, Z = 0.180
T0
G92 E0.0000
G1 E-1.0000 F1800
; feature skirt
; tool H0.180 W0.400
G1 Z0.180 F1002
G1 X91.680 Y91.916 F4800
G1 E0.0000 F1800
G92 E0.0000
G1 X92.321 Y91.305 E0.0238 F1237
G1 X92.486 Y91.162 E0.0297
G1 X93.182 Y90.614 E0.0536
G1 X93.361 Y90.487 E0.0595
G1 X94.105 Y90.009 E0.0833
G1 X94.295 Y89.899 E0.0892
G1 X95.082 Y89.494 E0.1131
G1 X95.281 Y89.403 E0.1190
G1 X96.103 Y89.074 E0.1428
G1 X96.309 Y89.002 E0.1487
G1 X97.159 Y88.753 E0.1726
G1 X97.372 Y88.701 E0.1785
G1 X98.241 Y88.534 E0.2023
G1 X98.458 Y88.502 E0.2082
G1 X99.339 Y88.418 E0.2321
G1 X99.557 Y88.408 E0.2380
G1 X100.443 Y88.408 E0.2618
G1 X100.661 Y88.418 E0.2677
G1 X101.542 Y88.502 E0.2916
G1 X101.759 Y88.534 E0.2975
G1 X102.628 Y88.701 E0.3213
G1 X102.841 Y88.753 E0.3272
G1 X103.691 Y89.002 E0.3511
G1 X103.897 Y89.074 E0.3570
G1 X104.719 Y89.403 E0.3808
G1 X104.918 Y89.494 E0.3867
G1 X105.705 Y89.899 E0.4106
G1 X105.895 Y90.009 E0.4165
G1 X106.639 Y90.487 E0.4403
G1 X106.818 Y90.614 E0.4462
G1 X107.514 Y91.162 E0.4700
G1 X107.679 Y91.305 E0.4759
G1 X108.320 Y91.916 E0.4998
G1 X108.471 Y92.074 E0.5057
G1 X109.051 Y92.743 E0.5295
G1 X109.186 Y92.915 E0.5354
G1 X109.699 Y93.636 E0.5593
G1 X109.818 Y93.821 E0.5652
G1 X110.260 Y94.587 E0.5890
G1 X110.361 Y94.782 E0.5949
G1 X110.728 Y95.587 E0.6188
G1 X110.810 Y95.790 E0.6247
G1 X111.099 Y96.627 E0.6485
G1 X111.161 Y96.837 E0.6544
G1 X111.370 Y97.697 E0.6783
G1 X111.411 Y97.912 E0.6842
G1 X111.537 Y98.788 E0.7080
G1 X111.558 Y99.006 E0.7139
G1 X111.600 Y99.895 E0.7379
G1 X111.600 Y100.124 E0.7440
G1 X111.552 Y101.037 E0.7687
G1 X111.532 Y101.246 E0.7743
G1 X111.411 Y102.088 E0.7973
G1 X111.370 Y102.303 E0.8032
G1 X111.161 Y103.163 E0.8270
G1 X111.099 Y103.373 E0.8329
G1 X110.810 Y104.210 E0.8567
G1 X110.728 Y104.413 E0.8626
G1 X110.361 Y105.218 E0.8865
G1 X110.260 Y105.413 E0.8924
G1 X109.818 Y106.179 E0.9162
G1 X109.699 Y106.364 E0.9221
G1 X109.186 Y107.085 E0.9460
G1 X109.051 Y107.257 E0.9519
G1 X108.471 Y107.926 E0.9757
G1 X108.320 Y108.084 E0.9816
G1 X107.679 Y108.695 E1.0055
G1 X107.514 Y108.838 E1.0114
G1 X106.818 Y109.386 E1.0352
G1 X106.639 Y109.513 E1.0411
G1 X105.895 Y109.991 E1.0650
G1 X105.705 Y110.101 E1.0709
G1 X104.918 Y110.506 E1.0947
G1 X104.719 Y110.597 E1.1006
G1 X103.897 Y110.926 E1.1245
G1 X103.691 Y110.998 E1.1304
G1 X102.841 Y111.247 E1.1542
G1 X102.628 Y111.299 E1.1601
G1 X101.759 Y111.466 E1.1840
G1 X101.542 Y111.497 E1.1899
G1 X100.661 Y111.582 E1.2137
G1 X100.443 Y111.592 E1.2196
G1 X99.557 Y111.592 E1.2435
G1 X99.339 Y111.582 E1.2494
G1 X98.458 Y111.497 E1.2732
G1 X98.241 Y111.466 E1.2791
G1 X97.372 Y111.299 E1.3029
G1 X97.159 Y111.247 E1.3088
G1 X96.309 Y110.998 E1.3327
G1 X96.103 Y110.926 E1.3386
G1 X95.281 Y110.597 E1.3624
G1 X95.082 Y110.506 E1.3683
G1 X94.295 Y110.101 E1.3922
G1 X94.105 Y109.991 E1.3981
G1 X93.361 Y109.513 E1.4219
G1 X93.182 Y109.386 E1.4278
G1 X92.486 Y108.838 E1.4517
G1 X92.321 Y108.695 E1.4576
G1 X91.680 Y108.084 E1.4814
G1 X91.529 Y107.926 E1.4873
G1 X90.949 Y107.257 E1.5112
G1 X90.814 Y107.085 E1.5171
G1 X90.301 Y106.364 E1.5409
G1 X90.182 Y106.179 E1.5468
G1 X89.740 Y105.413 E1.5707
G1 X89.639 Y105.218 E1.5766
G1 X89.272 Y104.413 E1.6004
G1 X89.190 Y104.210 E1.6063
G1 X88.901 Y103.373 E1.6302
G1 X88.839 Y103.163 E1.6361
G1 X88.630 Y102.303 E1.6599
G1 X88.589 Y102.088 E1.6658
G1 X88.463 Y101.212 E1.6897
G1 X88.442 Y100.994 E1.6956
G1 X88.400 Y100.109 E1.7194
G1 X88.400 Y99.891 E1.7253
G1 X88.442 Y99.006 E1.7491
G1 X88.463 Y98.788 E1.7550
G1 X88.589 Y97.912 E1.7789
G1 X88.630 Y97.697 E1.7848
G1 X88.839 Y96.837 E1.8086
G1 X88.901 Y96.627 E1.8145
G1 X89.190 Y95.790 E1.8384
G1 X89.272 Y95.587 E1.8443
G1 X89.639 Y94.782 E1.8681
G1 X89.740 Y94.587 E1.8740
G1 X90.182 Y93.821 E1.8979
G1 X90.301 Y93.636 E1.9038
G1 X90.814 Y92.915 E1.9276
G1 X90.949 Y92.743 E1.9335
G1 X91.529 Y92.074 E1.9574
G1 X91.680 Y91.916 E1.9633
G92 E0.0000
G1 E-1.0000 F1800
G1 X91.963 Y92.199 F4800
G1 E0.0000 F1800
G92 E0.0000
G1 X92.590 Y91.601 E0.0233 F1237
G1 X92.741 Y91.470 E0.0287
G1 X93.422 Y90.935 E0.0521
G1 X93.585 Y90.819 E0.0574
G1 X94.313 Y90.350 E0.0808
G1 X94.487 Y90.251 E0.0862
G1 X95.256 Y89.854 E0.1095
G1 X95.438 Y89.771 E0.1149
G1 X96.242 Y89.449 E0.1382
G1 X96.431 Y89.383 E0.1436
G1 X97.262 Y89.139 E0.1669
G1 X97.457 Y89.092 E0.1723
G1 X98.307 Y88.928 E0.1957
G1 X98.505 Y88.900 E0.2010
G1 X99.367 Y88.817 E0.2244
G1 X99.567 Y88.808 E0.2298
G1 X100.433 Y88.808 E0.2531
G1 X100.633 Y88.817 E0.2585
G1 X101.495 Y88.900 E0.2818
G1 X101.693 Y88.928 E0.2872
G1 X102.543 Y89.092 E0.3105
G1 X102.738 Y89.139 E0.3159
G1 X103.569 Y89.383 E0.3393
G1 X103.758 Y89.449 E0.3446
G1 X104.562 Y89.771 E0.3680
G1 X104.744 Y89.854 E0.3734
G1 X105.513 Y90.251 E0.3967
G1 X105.687 Y90.350 E0.4021
G1 X106.415 Y90.819 E0.4254
G1 X106.578 Y90.935 E0.4308
G1 X107.259 Y91.470 E0.4541
G1 X107.410 Y91.601 E0.4595
G1 X108.037 Y92.199 E0.4829
G1 X108.175 Y92.343 E0.4882
G1 X108.742 Y92.998 E0.5116
G1 X108.866 Y93.155 E0.5170
G1 X109.368 Y93.861 E0.5403
G1 X109.476 Y94.029 E0.5457
G1 X109.909 Y94.779 E0.5690
G1 X110.001 Y94.957 E0.5744
G1 X110.361 Y95.745 E0.5977
G1 X110.435 Y95.930 E0.6031
G1 X110.718 Y96.749 E0.6265
G1 X110.774 Y96.940 E0.6318
G1 X110.979 Y97.782 E0.6552
G1 X111.017 Y97.979 E0.6606
G1 X111.140 Y98.836 E0.6839
G1 X111.159 Y99.035 E0.6893
G1 X111.200 Y99.904 E0.7127
G1 X111.200 Y100.113 E0.7184
G1 X111.153 Y101.008 E0.7425
G1 X111.135 Y101.198 E0.7477
G1 X111.017 Y102.021 E0.7701
G1 X110.979 Y102.218 E0.7755
G1 X110.774 Y103.060 E0.7988
G1 X110.718 Y103.251 E0.8042
G1 X110.435 Y104.070 E0.8275
G1 X110.361 Y104.255 E0.8329
G1 X110.001 Y105.043 E0.8562
G1 X109.909 Y105.221 E0.8616
G1 X109.476 Y105.971 E0.8849
G1 X109.368 Y106.139 E0.8903
G1 X108.866 Y106.845 E0.9137
G1 X108.742 Y107.002 E0.9191
G1 X108.175 Y107.657 E0.9424
G1 X108.037 Y107.801 E0.9478
G1 X107.410 Y108.399 E0.9711
G1 X107.259 Y108.530 E0.9765
G1 X106.578 Y109.065 E0.9998
G1 X106.415 Y109.181 E1.0052
G1 X105.687 Y109.650 E1.0285
G1 X105.513 Y109.749 E1.0339
G1 X104.744 Y110.146 E1.0573
G1 X104.562 Y110.229 E1.0627
G1 X103.758 Y110.551 E1.0860
G1 X103.569 Y110.617 E1.0914
G1 X102.738 Y110.861 E1.1147
G1 X102.543 Y110.908 E1.1201
G1 X101.693 Y111.072 E1.1434
G1 X101.495 Y111.100 E1.1488
G1 X100.633 Y111.183 E1.1721
G1 X100.433 Y111.192 E1.1775
G1 X99.567 Y111.192 E1.2009
G1 X99.367 Y111.183 E1.2063
G1 X98.505 Y111.100 E1.2296
G1 X98.307 Y111.072 E1.2350
G1 X97.457 Y110.908 E1.2583
G1 X97.262 Y110.861 E1.2637
G1 X96.431 Y110.617 E1.2870
G1 X96.242 Y110.551 E1.2924
G1 X95.438 Y110.229 E1.3158
G1 X95.256 Y110.146 E1.3211
G1 X94.487 Y109.749 E1.3445
G1 X94.313 Y109.650 E1.3499
G1 X93.585 Y109.181 E1.3732
G1 X93.422 Y109.065 E1.3786
G1 X92.741 Y108.530 E1.4019
G1 X92.590 Y108.399 E1.4073
G1 X91.963 Y107.801 E1.4306
G1 X91.825 Y107.657 E1.4360
G1 X91.258 Y107.002 E1.4594
G1 X91.134 Y106.845 E1.4647
G1 X90.632 Y106.139 E1.4881
G1 X90.524 Y105.971 E1.4935
G1 X90.091 Y105.221 E1.5168
G1 X89.999 Y105.043 E1.5222
G1 X89.639 Y104.255 E1.5455
G1 X89.565 Y104.070 E1.5509
G1 X89.282 Y103.251 E1.5742
G1 X89.226 Y103.060 E1.5796
G1 X89.021 Y102.218 E1.6030
G1 X88.983 Y102.021 E1.6083
G1 X88.860 Y101.164 E1.6317
G1 X88.841 Y100.965 E1.6371
G1 X88.800 Y100.100 E1.6604
G1 X88.800 Y99.900 E1.6658
G1 X88.841 Y99.035 E1.6891
G1 X88.860 Y98.836 E1.6945
G1 X88.983 Y97.979 E1.7178
G1 X89.021 Y97.782 E1.7232
G1 X89.226 Y96.940 E1.7466
G1 X89.282 Y96.749 E1.7519
G1 X89.565 Y95.930 E1.7753
G1 X89.639 Y95.745 E1.7807
G1 X89.999 Y94.957 E1.8040
G1 X90.091 Y94.779 E1.8094
G1 X90.524 Y94.029 E1.8327
G1 X90.632 Y93.861 E1.8381
G1 X91.134 Y93.155 E1.8614
G1 X91.258 Y92.998 E1.8668
G1 X91.825 Y92.343 E1.8902
G1 X91.963 Y92.199 E1.8955
G92 E0.0000
G1 E-1.0000 F1800
; feature inner perimeter
G1 X95.369 Y95.584 F4800
G1 E0.0000 F1800
G92 E0.0000
G1 X95.809 Y95.164 E0.0164 F928
G1 X96.288 Y94.787 E0.0328
G1 X96.800 Y94.458 E0.0492
G1 X97.342 Y94.179 E0.0656
G1 X97.907 Y93.953 E0.0820
G1 X98.491 Y93.781 E0.0984
G1 X99.089 Y93.666 E0.1148
G1 X99.696 Y93.608 E0.1313
G1 X100.304 Y93.608 E0.1477
G1 X100.911 Y93.666 E0.1641
G1 X101.509 Y93.781 E0.1805
G1 X102.093 Y93.953 E0.1969
G1 X102.658 Y94.179 E0.2133
G1 X103.200 Y94.458 E0.2297
G1 X103.712 Y94.787 E0.2461
G1 X104.191 Y95.164 E0.2625
G1 X104.631 Y95.584 E0.2789
G1 X105.030 Y96.044 E0.2953
G1 X105.383 Y96.540 E0.3117
G1 X105.688 Y97.068 E0.3281
G1 X105.941 Y97.622 E0.3445
G1 X106.140 Y98.197 E0.3609
G1 X106.284 Y98.789 E0.3773
G1 X106.370 Y99.392 E0.3938
G1 X106.399 Y99.999 E0.4101
G1 X106.366 Y100.637 E0.4273
G1 X106.284 Y101.211 E0.4430
G1 X106.140 Y101.803 E0.4594
G1 X105.941 Y102.378 E0.4758
G1 X105.688 Y102.932 E0.4922
G1 X105.383 Y103.460 E0.5086
G1 X105.030 Y103.956 E0.5250
G1 X104.631 Y104.416 E0.5414
G1 X104.191 Y104.836 E0.5578
G1 X103.712 Y105.213 E0.5742
G1 X103.200 Y105.542 E0.5906
G1 X102.658 Y105.821 E0.6070
G1 X102.093 Y106.047 E0.6234
G1 X101.509 Y106.219 E0.6399
G1 X100.911 Y106.334 E0.6562
G1 X100.304 Y106.392 E0.6727
G1 X99.696 Y106.392 E0.6891
G1 X99.089 Y106.334 E0.7055
G1 X98.491 Y106.219 E0.7219
G1 X97.907 Y106.047 E0.7383
G1 X97.342 Y105.821 E0.7547
G1 X96.800 Y105.542 E0.7711
G1 X96.288 Y105.213 E0.7875
G1 X95.809 Y104.836 E0.8039
G1 X95.369 Y104.416 E0.8203
G1 X94.970 Y103.956 E0.8367
G1 X94.617 Y103.460 E0.8531
G1 X94.312 Y102.932 E0.8695
G1 X94.059 Y102.378 E0.8859
G1 X93.860 Y101.803 E0.9024
G1 X93.716 Y101.211 E0.9188
G1 X93.630 Y100.608 E0.9352
G1 X93.601 Y100.000 E0.9516
G1 X93.630 Y99.392 E0.9680
G1 X93.716 Y98.789 E0.9844
G1 X93.860 Y98.197 E1.0008
G1 X94.059 Y97.622 E1.0172
G1 X94.312 Y97.068 E1.0336
G1 X94.617 Y96.540 E1.0500
G1 X94.970 Y96.044 E1.0664
G1 X95.369 Y95.584 E1.0828
; feature outer perimeter
G1 X95.079 Y95.308 F4800
G92 E0.0000
G1 X95.547 Y94.861 E0.0174 F618
G1 X96.056 Y94.461 E0.0349
G1 X96.600 Y94.111 E0.0523
G1 X97.175 Y93.815 E0.0697
G1 X97.776 Y93.574 E0.0872
G1 X98.397 Y93.392 E0.1046
G1 X99.032 Y93.269 E0.1220
G1 X99.676 Y93.208 E0.1395
G1 X100.324 Y93.208 E0.1569
G1 X100.968 Y93.269 E0.1743
G1 X101.603 Y93.392 E0.1918
G1 X102.224 Y93.574 E0.2092
G1 X102.825 Y93.815 E0.2266
G1 X103.400 Y94.111 E0.2441
G1 X103.944 Y94.461 E0.2615
G1 X104.453 Y94.861 E0.2789
G1 X104.921 Y95.308 E0.2964
G1 X105.345 Y95.797 E0.3138
G1 X105.720 Y96.324 E0.3312
G1 X106.044 Y96.884 E0.3487
G1 X106.313 Y97.473 E0.3661
G1 X106.524 Y98.084 E0.3835
G1 X106.677 Y98.713 E0.4010
G1 X106.769 Y99.354 E0.4184
G1 X106.800 Y100.000 E0.4358
G1 X106.765 Y100.676 E0.4541
G1 X106.677 Y101.287 E0.4707
G1 X106.524 Y101.916 E0.4881
G1 X106.313 Y102.527 E0.5056
G1 X106.044 Y103.116 E0.5230
